; generated by PrusaSlicer 2.0.0+ on 2019-08-06 at 21:37:25

; 

; external perimeters extrusion width = 0.45mm
; perimeters extrusion width = 0.45mm
; infill extrusion width = 0.45mm
; solid infill extrusion width = 0.45mm
; top infill extrusion width = 0.40mm
; first layer extrusion width = 0.42mm

M73 P0 R89
M201 X9000 Y9000 Z500 E10000 ; sets maximum accelerations, mm/sec^2
M203 X500 Y500 Z12 E120 ; sets maximum feedrates, mm/sec
M204 P2000 R1500 T2000 ; sets acceleration (P, T) and retract acceleration (R), mm/sec^2
M205 X10.00 Y10.00 Z0.20 E2.50 ; sets the jerk limits, mm/sec
M205 S0 T0 ; sets the minimum extruding and travel feed rate, mm/sec
M107
M115 U3.7.2 ; tell printer latest fw version
G90 ; use absolute coordinates
M83 ; extruder relative mode
M104 S215 ; set extruder temp
M140 S60 ; set bed temp
M190 S60 ; wait for bed temp
M109 S215 ; wait for extruder temp
G28 W ; home all without mesh bed level
G80 ; mesh bed leveling
G1 Y-3.0 F1000.0 ; go outside print area
G92 E0.0
G1 X60.0 E9.0 F1000.0 ; intro line
M73 P0 R89
G1 X100.0 E12.5 F1000.0 ; intro line
G92 E0.0
M900 K30 ; Filament gcode
G21 ; set units to millimeters
G90 ; use absolute coordinates
M83 ; use relative distances for extrusion
;BEFORE_LAYER_CHANGE
G92 E0.0
;0.2


G1 E-0.80000 F2100.00000
G1 Z0.600 F10800.000
;AFTER_LAYER_CHANGE
;0.2
G1 X83.257 Y70.466
G1 Z0.200
G1 E0.80000 F2100.00000
M204 S1000
G1 F1200
G1 X85.507 Y67.913 E0.10671
G1 X87.864 Y65.555 E0.10454
G1 X90.518 Y63.215 E0.11095
G1 X93.156 Y61.170 E0.10465
G1 X95.968 Y59.259 E0.10660
G1 X98.961 Y57.493 E0.10896
G1 X101.933 Y55.979 E0.10458
G1 X105.054 Y54.629 E0.10660
G1 X108.324 Y53.455 E0.10896
G1 X111.527 Y52.525 E0.10458
G1 X114.849 Y51.783 E0.10671
G1 X118.211 Y51.251 E0.10671
G1 X121.530 Y50.936 E0.10453
G1 X125.004 Y50.823 E0.10900
G1 X128.399 Y50.930 E0.10648
G1 X131.722 Y51.243 E0.10465
G1 X135.152 Y51.783 E0.10888
G1 X138.474 Y52.526 E0.10671
G1 X141.676 Y53.455 E0.10454
G1 X145.005 Y54.653 E0.11094
G1 X148.068 Y55.980 E0.10465
G1 X151.042 Y57.494 E0.10465
G1 X154.087 Y59.295 E0.11091
G1 X156.845 Y61.171 E0.10458
G1 X159.534 Y63.257 E0.10671
G1 X162.087 Y65.507 E0.10671
G1 X164.445 Y67.864 E0.10454
G1 X166.785 Y70.518 E0.11095
G1 X168.830 Y73.156 E0.10465
G1 X170.741 Y75.968 E0.10660
G1 X172.507 Y78.961 E0.10896
G1 X174.021 Y81.933 E0.10458
G1 X175.372 Y85.057 E0.10671
G1 X176.525 Y88.259 E0.10671
G1 X177.456 Y91.460 E0.10453
G1 X178.217 Y94.849 E0.10889
G1 X178.749 Y98.211 E0.10671
G1 X179.064 Y101.530 E0.10453
G1 X179.177 Y105.001 E0.10889
G1 X179.071 Y108.381 E0.10603
G1 X178.746 Y111.813 E0.10809
G1 X178.217 Y115.152 E0.10602
G1 X177.474 Y118.474 E0.10671
G1 X176.544 Y121.679 E0.10465
G1 X175.347 Y125.005 E0.11083
G1 X174.020 Y128.068 E0.10465
G1 X172.506 Y131.042 E0.10465
G1 X170.705 Y134.087 E0.11091
G1 X168.829 Y136.845 E0.10458
G1 X166.743 Y139.534 E0.10671
G1 X164.493 Y142.087 E0.10671
G1 X162.136 Y144.445 E0.10453
G1 X159.482 Y146.785 E0.11095
G1 X156.844 Y148.830 E0.10465
G1 X154.032 Y150.741 E0.10660
G1 X151.039 Y152.507 E0.10896
G1 X148.067 Y154.021 E0.10458
G1 X144.946 Y155.371 E0.10660
G1 X141.676 Y156.545 E0.10896
G1 X138.473 Y157.475 E0.10458
G1 X135.151 Y158.217 E0.10671
G1 X131.789 Y158.749 E0.10671
G1 X128.470 Y159.064 E0.10453
G1 X124.999 Y159.177 E0.10889
G1 X121.619 Y159.071 E0.10603
G1 X118.187 Y158.746 E0.10809
G1 X114.848 Y158.217 E0.10602
G1 X111.526 Y157.474 E0.10671
G1 X108.324 Y156.545 E0.10454
G1 X104.995 Y155.347 E0.11094
G1 X101.932 Y154.020 E0.10465
G1 X98.958 Y152.506 E0.10465
G1 X95.913 Y150.705 E0.11091
G1 X93.155 Y148.829 E0.10458
G1 X90.466 Y146.743 E0.10671
G1 X87.916 Y144.495 E0.10660
G1 X85.555 Y142.136 E0.10465
G1 X83.215 Y139.482 E0.11095
G1 X81.170 Y136.844 E0.10465
G1 X79.259 Y134.032 E0.10660
G1 X77.493 Y131.039 E0.10896
G1 X75.979 Y128.067 E0.10458
G1 X74.629 Y124.946 E0.10660
G1 X73.455 Y121.676 E0.10896
G1 X72.525 Y118.473 E0.10458
G1 X71.783 Y115.151 E0.10671
G1 X71.251 Y111.789 E0.10671
G1 X70.936 Y108.470 E0.10453
G1 X70.823 Y104.999 E0.10889
G1 X70.929 Y101.619 E0.10603
G1 X71.254 Y98.187 E0.10809
G1 X71.783 Y94.848 E0.10602
G1 X72.526 Y91.526 E0.10671
G1 X73.455 Y88.324 E0.10454
G1 X74.653 Y84.995 E0.11094
G1 X75.980 Y81.932 E0.10465
G1 X77.494 Y78.958 E0.10465
G1 X79.295 Y75.913 E0.11091
G1 X81.171 Y73.155 E0.10458
G1 X83.220 Y70.513 E0.10483
G1 F8640
G1 X85.394 Y68.042 E-0.76000
G1 E-0.04000 F2100.00000
G1 Z0.800 F10800.000
G1 X102.136 Y86.085
G1 Z0.200
G1 E0.80000 F2100.00000
G1 F1200
G1 X103.370 Y84.686 E0.05850
G1 X104.755 Y83.309 E0.06124
G1 X106.085 Y82.136 E0.05561
G1 X107.558 Y80.993 E0.05845
G1 X109.100 Y79.945 E0.05845
G1 X110.704 Y78.996 E0.05845
G1 X112.365 Y78.150 E0.05845
G1 X114.076 Y77.410 E0.05845
G1 X115.830 Y76.778 E0.05845
G1 X117.620 Y76.258 E0.05845
G1 X119.440 Y75.852 E0.05845
G1 X121.282 Y75.560 E0.05850
G1 X123.227 Y75.382 E0.06124
G1 X125.000 Y75.326 E0.05561
G1 X126.863 Y75.385 E0.05845
G1 X128.719 Y75.560 E0.05845
G1 X130.560 Y75.852 E0.05845
G1 X132.380 Y76.258 E0.05845
G1 X134.170 Y76.778 E0.05845
G1 X135.924 Y77.410 E0.05845
G1 X137.635 Y78.150 E0.05845
G1 X139.296 Y78.996 E0.05845
G1 X140.901 Y79.946 E0.05849
G1 X142.514 Y81.049 E0.06124
G1 X143.915 Y82.136 E0.05561
G1 X145.314 Y83.370 E0.05850
G1 X146.691 Y84.755 E0.06124
G1 X147.864 Y86.085 E0.05561
G1 X149.007 Y87.558 E0.05845
G1 X150.055 Y89.100 E0.05845
G1 X151.004 Y90.704 E0.05845
G1 X151.850 Y92.365 E0.05845
G1 X152.590 Y94.076 E0.05845
G1 X153.222 Y95.830 E0.05845
G1 X153.742 Y97.622 E0.05849
G1 X154.163 Y99.529 E0.06124
G1 X154.440 Y101.281 E0.05561
G1 X154.615 Y103.137 E0.05845
G1 X154.674 Y105.000 E0.05845
G1 X154.615 Y106.863 E0.05845
G1 X154.440 Y108.719 E0.05845
G1 X154.148 Y110.560 E0.05845
G1 X153.741 Y112.381 E0.05849
G1 X153.191 Y114.255 E0.06124
G1 X152.590 Y115.924 E0.05561
G1 X151.850 Y117.635 E0.05845
G1 X151.004 Y119.296 E0.05845
G1 X150.054 Y120.901 E0.05849
G1 X148.951 Y122.514 E0.06124
G1 X147.864 Y123.915 E0.05561
G1 X146.630 Y125.314 E0.05850
G1 X145.245 Y126.691 E0.06124
G1 X143.915 Y127.864 E0.05561
G1 X142.442 Y129.007 E0.05845
G1 X140.900 Y130.055 E0.05845
G1 X139.296 Y131.004 E0.05845
G1 X137.635 Y131.850 E0.05845
G1 X135.924 Y132.590 E0.05845
G1 X134.170 Y133.222 E0.05845
G1 X132.378 Y133.742 E0.05849
G1 X130.471 Y134.163 E0.06124
G1 X128.719 Y134.440 E0.05561
G1 X126.863 Y134.615 E0.05845
G1 X125.000 Y134.674 E0.05845
G1 X123.137 Y134.615 E0.05845
G1 X121.281 Y134.440 E0.05845
G1 X119.440 Y134.148 E0.05845
G1 X117.619 Y133.741 E0.05849
G1 X115.745 Y133.191 E0.06124
G1 X114.076 Y132.590 E0.05561
G1 X112.365 Y131.850 E0.05845
G1 X110.704 Y131.004 E0.05845
G1 X109.099 Y130.054 E0.05849
G1 X107.486 Y128.951 E0.06124
G1 X106.085 Y127.864 E0.05561
G1 X104.686 Y126.630 E0.05850
G1 X103.309 Y125.245 E0.06124
G1 X102.136 Y123.915 E0.05561
G1 X100.993 Y122.442 E0.05845
G1 X99.945 Y120.900 E0.05845
G1 X98.996 Y119.296 E0.05845
G1 X98.150 Y117.635 E0.05845
G1 X97.410 Y115.924 E0.05845
G1 X96.778 Y114.170 E0.05845
G1 X96.258 Y112.378 E0.05849
G1 X95.837 Y110.471 E0.06124
G1 X95.560 Y108.719 E0.05561
G1 X95.385 Y106.863 E0.05845
G1 X95.326 Y105.000 E0.05845
G1 X95.385 Y103.137 E0.05845
G1 X95.560 Y101.281 E0.05845
G1 X95.852 Y99.440 E0.05845
G1 X96.259 Y97.619 E0.05849
G1 X96.809 Y95.745 E0.06124
G1 X97.410 Y94.076 E0.05561
G1 X98.150 Y92.365 E0.05845
G1 X98.996 Y90.704 E0.05845
G1 X99.946 Y89.099 E0.05849
G1 X101.049 Y87.486 E0.06124
G1 X102.099 Y86.132 E0.05373
G1 X102.397 Y86.364 F10800.000
G1 F1200
G1 X103.644 Y84.944 E0.05924
G1 X105.013 Y83.584 E0.06050
G1 X106.326 Y82.426 E0.05488
G1 X107.780 Y81.298 E0.05771
G1 X109.302 Y80.264 E0.05771
G1 X110.886 Y79.327 E0.05771
G1 X112.526 Y78.491 E0.05771
G1 X114.215 Y77.761 E0.05771
G1 X115.947 Y77.137 E0.05771
G1 X117.714 Y76.624 E0.05771
G1 X119.510 Y76.222 E0.05771
G1 X121.329 Y75.934 E0.05773
G1 X123.251 Y75.758 E0.06050
G1 X125.000 Y75.703 E0.05488
G1 X126.840 Y75.761 E0.05771
G1 X128.672 Y75.934 E0.05771
G1 X130.490 Y76.222 E0.05771
G1 X132.286 Y76.624 E0.05771
G1 X134.053 Y77.137 E0.05771
G1 X135.785 Y77.761 E0.05771
G1 X137.474 Y78.491 E0.05771
G1 X139.114 Y79.327 E0.05771
G1 X140.699 Y80.264 E0.05773
G1 X142.291 Y81.354 E0.06050
G1 X143.674 Y82.426 E0.05488
G1 X145.056 Y83.644 E0.05774
G1 X146.416 Y85.013 E0.06050
G1 X147.574 Y86.326 E0.05488
G1 X148.702 Y87.780 E0.05771
G1 X149.736 Y89.302 E0.05771
G1 X150.673 Y90.886 E0.05771
G1 X151.509 Y92.526 E0.05771
G1 X152.239 Y94.215 E0.05771
G1 X152.863 Y95.947 E0.05771
G1 X153.377 Y97.715 E0.05773
G1 X153.792 Y99.599 E0.06050
G1 X154.066 Y101.328 E0.05488
G1 X154.239 Y103.160 E0.05771
G1 X154.297 Y105.000 E0.05771
G1 X154.239 Y106.840 E0.05771
G1 X154.066 Y108.672 E0.05771
G1 X153.778 Y110.490 E0.05771
G1 X153.376 Y112.287 E0.05773
G1 X152.832 Y114.138 E0.06050
G1 X152.239 Y115.785 E0.05488
G1 X151.509 Y117.474 E0.05771
G1 X150.673 Y119.114 E0.05771
G1 X149.736 Y120.699 E0.05773
G1 X148.646 Y122.291 E0.06050
G1 X147.574 Y123.674 E0.05488
G1 X146.356 Y125.056 E0.05774
G1 X144.987 Y126.416 E0.06050
G1 X143.674 Y127.574 E0.05488
G1 X142.220 Y128.702 E0.05771
G1 X140.698 Y129.736 E0.05771
G1 X139.114 Y130.673 E0.05771
G1 X137.474 Y131.509 E0.05771
G1 X135.785 Y132.239 E0.05771
G1 X134.053 Y132.863 E0.05771
G1 X132.285 Y133.377 E0.05773
G1 X130.401 Y133.792 E0.06050
G1 X128.672 Y134.066 E0.05488
G1 X126.840 Y134.239 E0.05771
G1 X125.000 Y134.297 E0.05771
G1 X123.160 Y134.239 E0.05771
G1 X121.328 Y134.066 E0.05771
G1 X119.510 Y133.778 E0.05771
G1 X117.713 Y133.376 E0.05773
G1 X115.862 Y132.832 E0.06050
G1 X114.215 Y132.239 E0.05488
G1 X112.526 Y131.509 E0.05771
G1 X110.886 Y130.673 E0.05771
G1 X109.301 Y129.736 E0.05773
G1 X107.709 Y128.646 E0.06050
G1 X106.326 Y127.574 E0.05488
G1 X104.944 Y126.356 E0.05774
G1 X103.584 Y124.987 E0.06050
G1 X102.426 Y123.674 E0.05488
G1 X101.298 Y122.220 E0.05771
G1 X100.264 Y120.698 E0.05771
G1 X99.327 Y119.114 E0.05771
G1 X98.491 Y117.474 E0.05771
G1 X97.761 Y115.785 E0.05771
G1 X97.137 Y114.053 E0.05771
G1 X96.623 Y112.285 E0.05773
G1 X96.208 Y110.401 E0.06050
G1 X95.934 Y108.672 E0.05488
G1 X95.761 Y106.840 E0.05771
G1 X95.703 Y105.000 E0.05771
G1 X95.761 Y103.160 E0.05771
G1 X95.934 Y101.328 E0.05771
G1 X96.222 Y99.510 E0.05771
G1 X96.624 Y97.713 E0.05773
G1 X97.168 Y95.862 E0.06050
G1 X97.761 Y94.215 E0.05488
G1 X98.491 Y92.526 E0.05771
G1 X99.327 Y90.886 E0.05771
G1 X100.264 Y89.301 E0.05773
G1 X101.354 Y87.709 E0.06050
G1 X102.360 Y86.411 E0.05149
G1 X102.658 Y86.642 F10800.000
G1 F1200
G1 X103.919 Y85.203 E0.05999
G1 X105.270 Y83.859 E0.05975
G1 X106.566 Y82.717 E0.05416
G1 X108.002 Y81.604 E0.05696
G1 X109.504 Y80.582 E0.05696
G1 X111.068 Y79.658 E0.05696
G1 X112.687 Y78.833 E0.05696
G1 X114.354 Y78.111 E0.05696
G1 X116.063 Y77.496 E0.05696
G1 X117.808 Y76.989 E0.05696
G1 X119.581 Y76.593 E0.05696
G1 X121.376 Y76.308 E0.05697
G1 X123.274 Y76.135 E0.05976
G1 X125.000 Y76.080 E0.05415
G1 X126.816 Y76.138 E0.05696
G1 X128.625 Y76.308 E0.05696
G1 X130.419 Y76.593 E0.05696
G1 X132.192 Y76.989 E0.05696
G1 X133.937 Y77.496 E0.05696
G1 X135.646 Y78.111 E0.05696
G1 X137.313 Y78.833 E0.05696
G1 X138.932 Y79.658 E0.05696
G1 X140.496 Y80.583 E0.05697
G1 X142.069 Y81.658 E0.05976
G1 X143.434 Y82.717 E0.05416
G1 X144.797 Y83.919 E0.05697
G1 X146.141 Y85.270 E0.05975
G1 X147.283 Y86.566 E0.05416
G1 X148.396 Y88.002 E0.05696
G1 X149.418 Y89.504 E0.05696
G1 X150.342 Y91.068 E0.05696
G1 X151.167 Y92.687 E0.05696
G1 X151.889 Y94.354 E0.05696
G1 X152.504 Y96.063 E0.05696
G1 X153.011 Y97.808 E0.05697
G1 X153.421 Y99.669 E0.05976
G1 X153.692 Y101.375 E0.05415
G1 X153.862 Y103.184 E0.05696
G1 X153.920 Y105.000 E0.05696
G1 X153.862 Y106.816 E0.05696
G1 X153.692 Y108.625 E0.05696
G1 X153.407 Y110.419 E0.05696
G1 X153.011 Y112.192 E0.05697
G1 X152.474 Y114.021 E0.05976
G1 X151.889 Y115.646 E0.05415
G1 X151.167 Y117.313 E0.05696
G1 X150.342 Y118.932 E0.05696
G1 X149.417 Y120.496 E0.05697
G1 X148.342 Y122.069 E0.05976
G1 X147.283 Y123.434 E0.05416
G1 X146.081 Y124.797 E0.05697
G1 X144.730 Y126.141 E0.05975
G1 X143.434 Y127.283 E0.05416
G1 X141.998 Y128.396 E0.05696
G1 X140.496 Y129.418 E0.05696
G1 X138.932 Y130.342 E0.05696
G1 X137.313 Y131.167 E0.05696
G1 X135.646 Y131.889 E0.05696
G1 X133.937 Y132.504 E0.05696
G1 X132.192 Y133.011 E0.05697
G1 X130.330 Y133.421 E0.05976
G1 X128.625 Y133.692 E0.05415
G1 X126.816 Y133.862 E0.05696
G1 X125.000 Y133.920 E0.05696
G1 X123.184 Y133.862 E0.05696
G1 X121.375 Y133.692 E0.05696
G1 X119.581 Y133.407 E0.05696
G1 X117.808 Y133.011 E0.05697
G1 X115.979 Y132.474 E0.05976
G1 X114.354 Y131.889 E0.05415
G1 X112.687 Y131.167 E0.05696
G1 X111.068 Y130.342 E0.05696
G1 X109.504 Y129.417 E0.05697
G1 X107.931 Y128.342 E0.05976
G1 X106.566 Y127.283 E0.05416
G1 X105.203 Y126.081 E0.05697
G1 X103.859 Y124.730 E0.05975
G1 X102.717 Y123.434 E0.05416
G1 X101.604 Y121.998 E0.05696
G1 X100.582 Y120.496 E0.05696
G1 X99.658 Y118.932 E0.05696
G1 X98.833 Y117.313 E0.05696
G1 X98.111 Y115.646 E0.05696
G1 X97.496 Y113.937 E0.05696
G1 X96.989 Y112.192 E0.05697
G1 X96.579 Y110.330 E0.05976
G1 X96.308 Y108.625 E0.05415
G1 X96.138 Y106.816 E0.05696
G1 X96.080 Y105.000 E0.05696
G1 X96.138 Y103.184 E0.05696
G1 X96.308 Y101.375 E0.05696
G1 X96.593 Y99.581 E0.05696
G1 X96.989 Y97.808 E0.05697
G1 X97.526 Y95.979 E0.05976
G1 X98.111 Y94.354 E0.05416
G1 X98.833 Y92.687 E0.05696
G1 X99.658 Y91.068 E0.05696
G1 X100.583 Y89.504 E0.05697
G1 X101.658 Y87.931 E0.05976
G1 X102.621 Y86.690 E0.04925
G1 X102.518 Y86.268 F10800.000
G1 F8640
G1 X103.919 Y85.203 E-0.45561
G1 X104.854 Y84.274 E-0.30439
G1 E-0.04000 F2100.00000
G1 Z0.800 F10800.000
G1 X85.715 Y73.576
G1 Z0.200
G1 E0.80000 F2100.00000
G1 F1200
G1 X86.223 Y72.921 E0.02598
G1 X88.314 Y70.550 E0.09913
G1 X90.550 Y68.314 E0.09913
G1 X92.921 Y66.223 E0.09913
G1 X95.419 Y64.285 E0.09913
G1 X98.034 Y62.508 E0.09913
G1 X100.755 Y60.899 E0.09913
G1 X103.431 Y59.536 E0.09414
G1 X106.475 Y58.208 E0.10415
G1 X109.448 Y57.137 E0.09909
G1 X112.332 Y56.300 E0.09414
G1 X115.571 Y55.565 E0.10415
G1 X118.692 Y55.071 E0.09908
G1 X121.840 Y54.773 E0.09913
G1 X125.000 Y54.674 E0.09913
G1 X128.001 Y54.768 E0.09414
G1 X131.309 Y55.071 E0.10415
G1 X134.430 Y55.565 E0.09908
G1 X137.516 Y56.255 E0.09913
G1 X140.552 Y57.137 E0.09913
G1 X143.377 Y58.154 E0.09414
G1 X146.429 Y59.464 E0.10415
G1 X149.245 Y60.899 E0.09908
G1 X151.966 Y62.508 E0.09913
G1 X154.581 Y64.285 E0.09913
G1 X157.079 Y66.223 E0.09913
G1 X159.450 Y68.314 E0.09913
G1 X161.686 Y70.550 E0.09913
G1 X163.777 Y72.921 E0.09913
G1 X165.715 Y75.419 E0.09913
G1 X167.492 Y78.034 E0.09913
G1 X169.101 Y80.755 E0.09913
G1 X170.536 Y83.572 E0.09913
G1 X171.792 Y86.474 E0.09913
G1 X172.863 Y89.448 E0.09913
G1 X173.745 Y92.484 E0.09913
G1 X174.435 Y95.570 E0.09913
G1 X174.929 Y98.692 E0.09913
G1 X175.227 Y101.840 E0.09913
G1 X175.321 Y104.841 E0.09414
G1 X175.226 Y108.161 E0.10415
G1 X174.929 Y111.308 E0.09908
G1 X174.435 Y114.430 E0.09913
G1 X173.745 Y117.516 E0.09913
G1 X172.863 Y120.552 E0.09913
G1 X171.846 Y123.377 E0.09414
G1 X170.536 Y126.429 E0.10415
G1 X169.101 Y129.245 E0.09908
G1 X167.492 Y131.966 E0.09913
G1 X165.715 Y134.581 E0.09913
G1 X163.777 Y137.079 E0.09913
G1 X161.686 Y139.450 E0.09913
G1 X159.450 Y141.686 E0.09913
G1 X157.079 Y143.777 E0.09913
G1 X154.581 Y145.715 E0.09913
G1 X151.966 Y147.492 E0.09913
G1 X149.245 Y149.101 E0.09913
G1 X146.428 Y150.536 E0.09913
G1 X143.526 Y151.792 E0.09913
G1 X140.552 Y152.863 E0.09913
G1 X137.516 Y153.745 E0.09913
G1 X134.430 Y154.435 E0.09913
G1 X131.308 Y154.929 E0.09913
G1 X128.160 Y155.227 E0.09913
G1 X125.159 Y155.321 E0.09414
G1 X121.839 Y155.226 E0.10415
G1 X118.692 Y154.929 E0.09908
G1 X115.570 Y154.435 E0.09913
G1 X112.484 Y153.745 E0.09913
G1 X109.448 Y152.863 E0.09913
G1 X106.623 Y151.846 E0.09414
M73 P1 R88
G1 X103.571 Y150.536 E0.10415
G1 X100.755 Y149.101 E0.09908
G1 X98.034 Y147.492 E0.09913
G1 X95.419 Y145.715 E0.09913
G1 X92.921 Y143.777 E0.09913
G1 X90.550 Y141.686 E0.09913
G1 X88.314 Y139.450 E0.09913
G1 X86.223 Y137.079 E0.09913
G1 X84.285 Y134.581 E0.09913
G1 X82.508 Y131.966 E0.09913
G1 X80.899 Y129.245 E0.09913
