; generated by PrusaSlicer 2.0.0+ on 2019-08-04 at 16:48:11

; 

; external perimeters extrusion width = 0.45mm
; perimeters extrusion width = 0.45mm
; infill extrusion width = 0.45mm
; solid infill extrusion width = 0.45mm
; top infill extrusion width = 0.40mm
; first layer extrusion width = 0.42mm

M73 P0 R81
M73 Q0 S81
M201 X1000 Y1000 Z1000 E5000 ; sets maximum accelerations, mm/sec^2
M203 X200 Y200 Z12 E120 ; sets maximum feedrates, mm/sec
M204 P1250 R1250 T1250 ; sets acceleration (P, T) and retract acceleration (R), mm/sec^2
M205 X8.00 Y8.00 Z0.40 E1.50 ; sets the jerk limits, mm/sec
M205 S0 T0 ; sets the minimum extruding and travel feed rate, mm/sec
M107
M115 U3.7.2 ; tell printer latest fw version
G90 ; use absolute coordinates
M83 ; extruder relative mode
M104 S215 ; set extruder temp
M140 S60 ; set bed temp
M190 S60 ; wait for bed temp
M109 S215 ; wait for extruder temp
G28 W ; home all without mesh bed level
G80 ; mesh bed leveling
G1 Y-3.0 F1000.0 ; go outside print area
G92 E0.0
G1 X60.0 E9.0 F1000.0 ; intro line
M73 Q0 S81
M73 P0 R81
G1 X100.0 E12.5 F1000.0 ; intro line
G92 E0.0
M221 S95
M900 K30 ; Filament gcode
G21 ; set units to millimeters
G90 ; use absolute coordinates
M83 ; use relative distances for extrusion
;BEFORE_LAYER_CHANGE
G92 E0.0
;0.25


G1 E-0.80000 F2100.00000
G1 Z0.600 F10800.000
;AFTER_LAYER_CHANGE
;0.25
G1 X84.478 Y71.477
G1 Z0.250
G1 E0.80000 F2100.00000
M204 S1000
G1 F1200
G1 X86.663 Y68.998 E0.12580
G1 X88.950 Y66.710 E0.12316
G1 X91.529 Y64.436 E0.13094
G1 X94.088 Y62.452 E0.12330
G1 X96.818 Y60.597 E0.12566
G1 X99.725 Y58.882 E0.12852
G1 X102.609 Y57.414 E0.12322
G1 X105.641 Y56.102 E0.12580
G1 X108.749 Y54.983 E0.12581
G1 X111.855 Y54.079 E0.12316
G1 X115.146 Y53.340 E0.12844
G1 X118.409 Y52.824 E0.12580
G1 X121.629 Y52.518 E0.12316
G1 X125.004 Y52.409 E0.12858
G1 X128.303 Y52.513 E0.12566
G1 X131.523 Y52.816 E0.12316
G1 X134.855 Y53.341 E0.12844
G1 X138.080 Y54.061 E0.12580
G1 X141.186 Y54.963 E0.12316
G1 X144.422 Y56.127 E0.13094
G1 X147.393 Y57.414 E0.12330
G1 X150.279 Y58.884 E0.12330
G1 X153.237 Y60.633 E0.13088
G1 X155.913 Y62.453 E0.12322
G1 X158.523 Y64.478 E0.12580
G1 X160.999 Y66.661 E0.12566
G1 X163.290 Y68.950 E0.12330
G1 X165.564 Y71.529 E0.13094
G1 X167.548 Y74.088 E0.12330
G1 X169.403 Y76.818 E0.12566
G1 X171.118 Y79.725 E0.12852
G1 X172.586 Y82.609 E0.12322
G1 X173.897 Y85.637 E0.12566
G1 X175.037 Y88.814 E0.12852
G1 X175.939 Y91.922 E0.12322
G1 X176.660 Y95.146 E0.12580
G1 X177.176 Y98.409 E0.12580
G1 X177.482 Y101.629 E0.12316
G1 X177.591 Y105.001 E0.12844
G1 X177.487 Y108.303 E0.12580
G1 X177.184 Y111.523 E0.12316
G1 X176.659 Y114.855 E0.12844
G1 X175.939 Y118.080 E0.12580
G1 X175.037 Y121.186 E0.12316
G1 X173.873 Y124.422 E0.13094
G1 X172.586 Y127.393 E0.12330
G1 X171.116 Y130.279 E0.12330
G1 X169.367 Y133.237 E0.13088
G1 X167.547 Y135.913 E0.12322
G1 X165.522 Y138.523 E0.12580
G1 X163.339 Y140.999 E0.12566
G1 X161.050 Y143.290 E0.12330
G1 X158.471 Y145.564 E0.13094
G1 X155.912 Y147.548 E0.12330
G1 X153.182 Y149.403 E0.12566
G1 X150.275 Y151.118 E0.12852
G1 X147.391 Y152.586 E0.12322
G1 X144.363 Y153.897 E0.12566
G1 X141.186 Y155.037 E0.12852
G1 X138.078 Y155.939 E0.12322
G1 X134.854 Y156.660 E0.12580
G1 X131.591 Y157.176 E0.12580
G1 X128.371 Y157.482 E0.12316
G1 X124.999 Y157.591 E0.12844
G1 X121.697 Y157.487 E0.12580
G1 X118.477 Y157.184 E0.12316
G1 X115.145 Y156.659 E0.12844
G1 X111.920 Y155.939 E0.12580
G1 X108.814 Y155.037 E0.12316
G1 X105.578 Y153.873 E0.13094
G1 X102.607 Y152.586 E0.12330
G1 X99.721 Y151.116 E0.12330
G1 X96.763 Y149.367 E0.13088
G1 X94.087 Y147.547 E0.12322
G1 X91.477 Y145.522 E0.12580
G1 X88.998 Y143.337 E0.12580
G1 X86.710 Y141.050 E0.12316
G1 X84.435 Y138.469 E0.13102
G1 X82.452 Y135.912 E0.12322
G1 X80.597 Y133.182 E0.12566
G1 X78.882 Y130.275 E0.12852
G1 X77.414 Y127.391 E0.12322
G1 X76.103 Y124.363 E0.12566
G1 X74.963 Y121.186 E0.12852
G1 X74.061 Y118.078 E0.12322
G1 X73.340 Y114.854 E0.12580
G1 X72.824 Y111.591 E0.12580
G1 X72.518 Y108.371 E0.12316
G1 X72.409 Y104.999 E0.12844
G1 X72.513 Y101.697 E0.12580
G1 X72.816 Y98.477 E0.12316
G1 X73.341 Y95.145 E0.12844
G1 X74.061 Y91.920 E0.12580
G1 X74.963 Y88.814 E0.12316
G1 X76.127 Y85.578 E0.13094
G1 X77.414 Y82.607 E0.12330
G1 X78.884 Y79.721 E0.12330
G1 X80.633 Y76.763 E0.13088
G1 X82.453 Y74.087 E0.12322
G1 X84.442 Y71.524 E0.12352
G1 F8640
G1 X86.616 Y69.053 E-0.76000
G1 E-0.04000 F2100.00000
G1 Z0.850 F10800.000
G1 X104.035 Y87.656
G1 Z0.250
G1 E0.80000 F2100.00000
G1 F1200
G1 X105.165 Y86.374 E0.06509
G1 X106.374 Y85.165 E0.06509
G1 X107.656 Y84.035 E0.06509
G1 X109.007 Y82.987 E0.06509
G1 X110.420 Y82.026 E0.06509
G1 X111.892 Y81.156 E0.06509
G1 X113.415 Y80.380 E0.06509
G1 X114.983 Y79.701 E0.06509
G1 X116.592 Y79.122 E0.06509
G1 X118.233 Y78.645 E0.06509
G1 X119.901 Y78.272 E0.06509
G1 X121.590 Y78.005 E0.06509
G1 X123.291 Y77.844 E0.06509
G1 X125.000 Y77.790 E0.06509
G1 X126.709 Y77.844 E0.06509
G1 X128.410 Y78.005 E0.06509
G1 X130.099 Y78.272 E0.06509
G1 X131.767 Y78.645 E0.06509
G1 X133.408 Y79.122 E0.06509
G1 X135.017 Y79.701 E0.06509
G1 X136.585 Y80.380 E0.06509
G1 X138.108 Y81.156 E0.06509
G1 X139.580 Y82.026 E0.06509
G1 X140.993 Y82.987 E0.06509
G1 X142.344 Y84.035 E0.06509
G1 X143.626 Y85.165 E0.06509
G1 X144.835 Y86.374 E0.06509
G1 X145.965 Y87.656 E0.06509
G1 X147.013 Y89.007 E0.06509
G1 X147.974 Y90.420 E0.06509
G1 X148.844 Y91.892 E0.06509
G1 X149.620 Y93.415 E0.06509
G1 X150.299 Y94.983 E0.06509
G1 X150.878 Y96.592 E0.06509
G1 X151.355 Y98.233 E0.06509
G1 X151.728 Y99.901 E0.06509
G1 X151.995 Y101.590 E0.06509
G1 X152.156 Y103.291 E0.06509
G1 X152.210 Y105.000 E0.06509
G1 X152.156 Y106.709 E0.06509
G1 X151.995 Y108.410 E0.06509
G1 X151.728 Y110.099 E0.06509
G1 X151.355 Y111.767 E0.06509
G1 X150.878 Y113.408 E0.06509
G1 X150.299 Y115.017 E0.06509
G1 X149.620 Y116.585 E0.06509
G1 X148.844 Y118.108 E0.06509
G1 X147.974 Y119.580 E0.06509
G1 X147.013 Y120.993 E0.06509
G1 X145.965 Y122.344 E0.06509
G1 X144.835 Y123.626 E0.06509
G1 X143.626 Y124.835 E0.06509
G1 X142.344 Y125.965 E0.06509
G1 X140.993 Y127.013 E0.06509
G1 X139.580 Y127.974 E0.06509
G1 X138.108 Y128.844 E0.06509
G1 X136.585 Y129.620 E0.06509
G1 X135.017 Y130.299 E0.06509
G1 X133.408 Y130.878 E0.06509
G1 X131.767 Y131.355 E0.06509
G1 X130.099 Y131.728 E0.06509
G1 X128.410 Y131.995 E0.06509
G1 X126.709 Y132.156 E0.06509
G1 X125.000 Y132.210 E0.06509
G1 X123.291 Y132.156 E0.06509
G1 X121.590 Y131.995 E0.06509
G1 X119.901 Y131.728 E0.06509
G1 X118.233 Y131.355 E0.06509
G1 X116.592 Y130.878 E0.06509
G1 X114.983 Y130.299 E0.06509
G1 X113.415 Y129.620 E0.06509
G1 X111.892 Y128.844 E0.06509
G1 X110.420 Y127.974 E0.06509
G1 X109.007 Y127.013 E0.06509
G1 X107.656 Y125.965 E0.06509
G1 X106.374 Y124.835 E0.06509
G1 X105.610 Y124.072 E0.04110
G1 X105.165 Y123.626 E0.02399
G1 X104.035 Y122.344 E0.06509
G1 X102.987 Y120.993 E0.06509
G1 X102.026 Y119.580 E0.06509
G1 X101.156 Y118.108 E0.06509
G1 X100.380 Y116.585 E0.06509
G1 X99.701 Y115.017 E0.06509
G1 X99.122 Y113.408 E0.06509
G1 X98.645 Y111.767 E0.06509
G1 X98.272 Y110.099 E0.06509
G1 X98.005 Y108.410 E0.06509
G1 X97.844 Y106.709 E0.06509
G1 X97.790 Y105.000 E0.06509
G1 X97.844 Y103.291 E0.06509
G1 X98.005 Y101.590 E0.06509
G1 X98.272 Y99.901 E0.06509
G1 X98.645 Y98.233 E0.06509
G1 X99.122 Y96.592 E0.06509
G1 X99.701 Y94.983 E0.06509
G1 X100.380 Y93.415 E0.06509
G1 X101.156 Y91.892 E0.06509
G1 X102.026 Y90.420 E0.06509
G1 X102.987 Y89.007 E0.06509
G1 X103.998 Y87.703 E0.06280
G1 X104.287 Y87.928 F10800.000
G1 F1200
G1 X105.432 Y86.625 E0.06605
G1 X106.625 Y85.432 E0.06421
G1 X107.890 Y84.317 E0.06421
G1 X109.222 Y83.283 E0.06421
G1 X110.617 Y82.336 E0.06421
G1 X112.068 Y81.477 E0.06421
G1 X113.571 Y80.712 E0.06421
G1 X115.118 Y80.042 E0.06421
G1 X116.705 Y79.471 E0.06421
G1 X118.324 Y79.000 E0.06421
G1 X119.970 Y78.632 E0.06421
G1 X121.636 Y78.368 E0.06421
G1 X123.315 Y78.210 E0.06421
G1 X125.000 Y78.157 E0.06421
G1 X126.685 Y78.210 E0.06421
G1 X128.364 Y78.368 E0.06421
G1 X130.030 Y78.632 E0.06421
G1 X131.676 Y79.000 E0.06421
G1 X133.295 Y79.471 E0.06421
G1 X134.882 Y80.042 E0.06421
G1 X136.429 Y80.712 E0.06421
G1 X137.932 Y81.477 E0.06421
G1 X139.383 Y82.336 E0.06421
G1 X140.778 Y83.283 E0.06421
G1 X142.110 Y84.317 E0.06421
G1 X143.375 Y85.432 E0.06421
G1 X144.568 Y86.625 E0.06421
G1 X145.683 Y87.890 E0.06421
G1 X146.717 Y89.222 E0.06421
G1 X147.664 Y90.617 E0.06421
G1 X148.523 Y92.068 E0.06421
G1 X149.288 Y93.571 E0.06421
G1 X149.958 Y95.118 E0.06421
G1 X150.529 Y96.705 E0.06421
G1 X151.000 Y98.324 E0.06421
G1 X151.368 Y99.970 E0.06421
G1 X151.632 Y101.636 E0.06421
G1 X151.790 Y103.315 E0.06421
G1 X151.843 Y105.000 E0.06421
G1 X151.790 Y106.685 E0.06421
G1 X151.632 Y108.364 E0.06421
G1 X151.368 Y110.030 E0.06421
G1 X151.000 Y111.676 E0.06421
G1 X150.529 Y113.295 E0.06421
G1 X149.958 Y114.882 E0.06421
G1 X149.288 Y116.429 E0.06421
G1 X148.523 Y117.932 E0.06421
G1 X147.664 Y119.383 E0.06421
G1 X146.717 Y120.778 E0.06421
G1 X145.683 Y122.110 E0.06421
G1 X144.568 Y123.375 E0.06421
G1 X143.375 Y124.568 E0.06421
G1 X142.110 Y125.683 E0.06421
G1 X140.778 Y126.717 E0.06421
G1 X139.383 Y127.664 E0.06421
G1 X137.932 Y128.523 E0.06421
G1 X136.429 Y129.288 E0.06421
G1 X134.882 Y129.958 E0.06421
G1 X133.295 Y130.529 E0.06421
G1 X131.676 Y131.000 E0.06421
G1 X130.030 Y131.368 E0.06421
G1 X128.364 Y131.632 E0.06421
G1 X126.685 Y131.790 E0.06421
G1 X125.000 Y131.843 E0.06421
G1 X123.315 Y131.790 E0.06421
G1 X121.636 Y131.632 E0.06421
G1 X119.970 Y131.368 E0.06421
G1 X118.324 Y131.000 E0.06421
G1 X116.705 Y130.529 E0.06421
G1 X115.118 Y129.958 E0.06421
G1 X113.571 Y129.288 E0.06421
G1 X112.068 Y128.523 E0.06421
G1 X110.617 Y127.664 E0.06421
G1 X109.222 Y126.717 E0.06421
G1 X107.890 Y125.683 E0.06421
G1 X106.625 Y124.568 E0.06421
G1 X105.870 Y123.813 E0.04066
G1 X105.432 Y123.375 E0.02355
G1 X104.317 Y122.110 E0.06421
G1 X103.283 Y120.778 E0.06421
G1 X102.336 Y119.383 E0.06421
G1 X101.477 Y117.932 E0.06421
G1 X100.712 Y116.429 E0.06421
G1 X100.042 Y114.882 E0.06421
G1 X99.471 Y113.295 E0.06421
G1 X99.000 Y111.676 E0.06421
G1 X98.632 Y110.030 E0.06421
G1 X98.368 Y108.364 E0.06421
G1 X98.210 Y106.685 E0.06421
G1 X98.157 Y105.000 E0.06421
G1 X98.210 Y103.315 E0.06421
G1 X98.368 Y101.636 E0.06421
G1 X98.632 Y99.970 E0.06421
G1 X99.000 Y98.324 E0.06421
G1 X99.471 Y96.705 E0.06421
G1 X100.042 Y95.118 E0.06421
G1 X100.712 Y93.571 E0.06421
G1 X101.477 Y92.068 E0.06421
G1 X102.336 Y90.617 E0.06421
G1 X103.283 Y89.222 E0.06421
G1 X104.250 Y87.975 E0.06008
G1 X104.540 Y88.200 F10800.000
G1 F1200
G1 X105.699 Y86.875 E0.06702
G1 X106.875 Y85.699 E0.06334
G1 X108.123 Y84.599 E0.06333
G1 X109.437 Y83.580 E0.06333
G1 X110.813 Y82.645 E0.06333
G1 X112.245 Y81.798 E0.06334
G1 X113.727 Y81.043 E0.06333
G1 X115.253 Y80.383 E0.06333
G1 X116.818 Y79.819 E0.06334
G1 X118.416 Y79.355 E0.06333
G1 X120.039 Y78.992 E0.06333
G1 X121.682 Y78.732 E0.06333
G1 X123.338 Y78.576 E0.06333
G1 X125.000 Y78.523 E0.06333
G1 X126.662 Y78.576 E0.06333
G1 X128.318 Y78.732 E0.06333
G1 X129.961 Y78.992 E0.06333
G1 X131.584 Y79.355 E0.06333
G1 X133.182 Y79.819 E0.06334
G1 X134.747 Y80.383 E0.06334
G1 X136.273 Y81.043 E0.06333
G1 X137.755 Y81.798 E0.06333
G1 X139.187 Y82.645 E0.06334
G1 X140.563 Y83.580 E0.06333
G1 X141.877 Y84.599 E0.06333
G1 X143.125 Y85.699 E0.06333
G1 X144.301 Y86.875 E0.06334
G1 X145.401 Y88.123 E0.06333
G1 X146.420 Y89.437 E0.06333
G1 X147.355 Y90.813 E0.06333
G1 X148.202 Y92.245 E0.06334
G1 X148.957 Y93.727 E0.06333
G1 X149.617 Y95.253 E0.06333
G1 X150.181 Y96.818 E0.06334
G1 X150.645 Y98.416 E0.06334
G1 X151.008 Y100.039 E0.06333
G1 X151.268 Y101.682 E0.06333
G1 X151.424 Y103.338 E0.06333
G1 X151.477 Y105.000 E0.06333
G1 X151.424 Y106.662 E0.06333
G1 X151.268 Y108.318 E0.06333
G1 X151.008 Y109.961 E0.06333
G1 X150.645 Y111.584 E0.06333
G1 X150.181 Y113.182 E0.06334
G1 X149.617 Y114.747 E0.06334
G1 X148.957 Y116.273 E0.06333
G1 X148.202 Y117.755 E0.06333
G1 X147.355 Y119.187 E0.06334
G1 X146.420 Y120.563 E0.06333
G1 X145.401 Y121.877 E0.06333
G1 X144.301 Y123.125 E0.06333
G1 X143.125 Y124.301 E0.06334
G1 X141.877 Y125.401 E0.06333
G1 X140.563 Y126.420 E0.06333
G1 X139.187 Y127.355 E0.06333
G1 X137.755 Y128.202 E0.06334
G1 X136.273 Y128.957 E0.06333
G1 X134.747 Y129.617 E0.06333
G1 X133.182 Y130.181 E0.06334
G1 X131.584 Y130.645 E0.06334
G1 X129.961 Y131.008 E0.06333
G1 X128.318 Y131.268 E0.06333
G1 X126.662 Y131.424 E0.06333
G1 X125.000 Y131.477 E0.06333
G1 X123.338 Y131.424 E0.06333
G1 X121.682 Y131.268 E0.06333
G1 X120.039 Y131.008 E0.06333
G1 X118.416 Y130.645 E0.06333
G1 X116.818 Y130.181 E0.06334
G1 X115.253 Y129.617 E0.06334
G1 X113.727 Y128.957 E0.06333
G1 X112.245 Y128.202 E0.06333
G1 X110.813 Y127.355 E0.06334
G1 X109.437 Y126.420 E0.06333
G1 X108.123 Y125.401 E0.06333
G1 X106.875 Y124.301 E0.06333
G1 X106.129 Y123.554 E0.04022
G1 X105.699 Y123.125 E0.02311
G1 X104.599 Y121.877 E0.06333
G1 X103.580 Y120.563 E0.06333
G1 X102.645 Y119.187 E0.06333
G1 X101.798 Y117.755 E0.06334
G1 X101.043 Y116.273 E0.06333
G1 X100.383 Y114.747 E0.06333
G1 X99.819 Y113.182 E0.06334
G1 X99.355 Y111.584 E0.06334
G1 X98.992 Y109.961 E0.06333
G1 X98.732 Y108.318 E0.06333
G1 X98.576 Y106.662 E0.06333
G1 X98.523 Y105.000 E0.06333
G1 X98.576 Y103.338 E0.06333
G1 X98.732 Y101.682 E0.06333
G1 X98.992 Y100.039 E0.06333
G1 X99.355 Y98.416 E0.06333
G1 X99.819 Y96.818 E0.06334
G1 X100.383 Y95.253 E0.06334
G1 X101.043 Y93.727 E0.06333
G1 X101.798 Y92.245 E0.06333
G1 X102.645 Y90.813 E0.06334
G1 X103.580 Y89.437 E0.06333
G1 X104.503 Y88.247 E0.05736
G1 X104.400 Y87.825 F10800.000
G1 F8640
G1 X105.699 Y86.875 E-0.42024
G1 X106.740 Y85.835 E-0.33976
G1 E-0.04000 F2100.00000
G1 Z0.850 F10800.000
G1 X86.861 Y74.563
G1 Z0.250
G1 E0.80000 F2100.00000
G1 F1200
G1 X87.387 Y73.884 E0.03270
G1 X89.415 Y71.584 E0.11677
G1 X91.584 Y69.415 E0.11677
G1 X93.884 Y67.387 E0.11677
G1 X96.307 Y65.508 E0.11677
G1 X98.844 Y63.784 E0.11677
G1 X101.483 Y62.223 E0.11677
G1 X104.216 Y60.831 E0.11677
G1 X107.030 Y59.613 E0.11677
G1 X109.915 Y58.574 E0.11677
G1 X112.860 Y57.719 E0.11677
G1 X115.853 Y57.050 E0.11677
G1 X118.882 Y56.570 E0.11677
G1 X121.935 Y56.281 E0.11677
G1 X125.000 Y56.185 E0.11677
G1 X128.065 Y56.281 E0.11677
G1 X131.118 Y56.570 E0.11677
G1 X134.147 Y57.050 E0.11677
G1 X137.140 Y57.719 E0.11677
G1 X140.085 Y58.574 E0.11677
G1 X142.970 Y59.613 E0.11677
G1 X145.784 Y60.831 E0.11677
G1 X148.517 Y62.223 E0.11677
G1 X151.156 Y63.784 E0.11677
G1 X153.693 Y65.508 E0.11677
G1 X156.116 Y67.387 E0.11677
G1 X158.416 Y69.415 E0.11677
G1 X160.585 Y71.584 E0.11677
G1 X162.613 Y73.884 E0.11677
G1 X164.492 Y76.307 E0.11677
G1 X166.216 Y78.844 E0.11677
G1 X167.777 Y81.483 E0.11677
G1 X169.169 Y84.216 E0.11677
G1 X170.387 Y87.030 E0.11677
G1 X171.426 Y89.915 E0.11677
G1 X172.281 Y92.860 E0.11677
G1 X172.950 Y95.853 E0.11677
G1 X173.430 Y98.882 E0.11677
G1 X173.719 Y101.935 E0.11677
G1 X173.815 Y105.000 E0.11677
G1 X173.719 Y108.065 E0.11677
G1 X173.430 Y111.118 E0.11677
G1 X172.950 Y114.147 E0.11677
G1 X172.281 Y117.140 E0.11677
G1 X171.426 Y120.085 E0.11677
G1 X170.387 Y122.970 E0.11677
G1 X169.169 Y125.784 E0.11677
G1 X167.777 Y128.517 E0.11677
G1 X166.216 Y131.156 E0.11677
G1 X164.492 Y133.693 E0.11677
G1 X162.613 Y136.116 E0.11677
G1 X160.585 Y138.416 E0.11677
G1 X158.416 Y140.585 E0.11677
G1 X156.116 Y142.613 E0.11677
G1 X153.693 Y144.492 E0.11677
G1 X151.156 Y146.216 E0.11677
G1 X148.517 Y147.777 E0.11677
G1 X145.784 Y149.169 E0.11677
G1 X144.772 Y149.607 E0.04200
G1 X142.970 Y150.387 E0.07477
G1 X140.085 Y151.426 E0.11677
G1 X137.140 Y152.281 E0.11677
G1 X134.147 Y152.950 E0.11677
G1 X131.118 Y153.430 E0.11677
G1 X128.065 Y153.719 E0.11677
G1 X125.000 Y153.815 E0.11677
G1 X121.935 Y153.719 E0.11677
G1 X118.882 Y153.430 E0.11677
G1 X115.853 Y152.950 E0.11677
G1 X112.860 Y152.281 E0.11677
G1 X109.915 Y151.426 E0.11677
G1 X107.030 Y150.387 E0.11677
G1 X104.216 Y149.169 E0.11677
G1 X101.483 Y147.777 E0.11677
G1 X98.844 Y146.216 E0.11677
G1 X96.307 Y144.492 E0.11677
G1 X93.884 Y142.613 E0.11677
