; generated by PrusaSlicer 2.0.0+ on 2019-08-04 at 20:38:21

; 

; external perimeters extrusion width = 0.45mm
; perimeters extrusion width = 0.45mm
; infill extrusion width = 0.45mm
; solid infill extrusion width = 0.45mm
; top infill extrusion width = 0.40mm
; first layer extrusion width = 0.42mm

M73 P0 R82
M73 Q0 S83
M201 X1000 Y1000 Z1000 E5000 ; sets maximum accelerations, mm/sec^2
M203 X200 Y200 Z12 E120 ; sets maximum feedrates, mm/sec
M204 P1250 R1250 T1250 ; sets acceleration (P, T) and retract acceleration (R), mm/sec^2
M205 X8.00 Y8.00 Z0.40 E1.50 ; sets the jerk limits, mm/sec
M205 S0 T0 ; sets the minimum extruding and travel feed rate, mm/sec
M107
M115 U3.7.2 ; tell printer latest fw version
G90 ; use absolute coordinates
M83 ; extruder relative mode
M104 S215 ; set extruder temp
M140 S60 ; set bed temp
M190 S60 ; wait for bed temp
M109 S215 ; wait for extruder temp
G28 W ; home all without mesh bed level
G80 ; mesh bed leveling
G1 Y-3.0 F1000.0 ; go outside print area
G92 E0.0
G1 X60.0 E9.0 F1000.0 ; intro line
M73 Q0 S83
M73 P0 R82
G1 X100.0 E12.5 F1000.0 ; intro line
G92 E0.0
M221 S95
M900 K30 ; Filament gcode
G21 ; set units to millimeters
G90 ; use absolute coordinates
M83 ; use relative distances for extrusion
;BEFORE_LAYER_CHANGE
G92 E0.0
;0.25


G1 E-0.80000 F2100.00000
G1 Z0.600 F10800.000
;AFTER_LAYER_CHANGE
;0.25
G1 X83.218 Y70.434
G1 Z0.250
G1 E0.80000 F2100.00000
M204 S1000
G1 F1200
G1 X85.471 Y67.879 E0.12972
G1 X87.830 Y65.518 E0.12707
G1 X90.488 Y63.175 E0.13493
G1 X93.127 Y61.129 E0.12714
G1 X95.941 Y59.216 E0.12957
G1 X98.937 Y57.449 E0.13244
G1 X101.912 Y55.934 E0.12713
G1 X105.035 Y54.582 E0.12958
G1 X108.240 Y53.428 E0.12971
G1 X111.167 Y52.577 E0.11606
G1 X114.840 Y51.733 E0.14349
G1 X118.201 Y51.201 E0.12958
G1 X121.527 Y50.885 E0.12721
G1 X125.004 Y50.773 E0.13249
G1 X128.402 Y50.880 E0.12944
G1 X131.728 Y51.193 E0.12721
G1 X135.162 Y51.734 E0.13235
G1 X138.486 Y52.477 E0.12972
G1 X141.692 Y53.407 E0.12708
G1 X145.024 Y54.607 E0.13485
G1 X148.089 Y55.934 E0.12721
G1 X151.067 Y57.450 E0.12722
G1 X154.114 Y59.252 E0.13480
G1 X156.874 Y61.130 E0.12713
G1 X159.566 Y63.218 E0.12972
G1 X162.121 Y65.471 E0.12972
G1 X164.482 Y67.830 E0.12707
G1 X166.824 Y70.486 E0.13485
G1 X168.871 Y73.127 E0.12721
G1 X170.784 Y75.941 E0.12957
G1 X172.551 Y78.937 E0.13244
G1 X174.066 Y81.912 E0.12713
G1 X175.418 Y85.035 E0.12958
G1 X176.572 Y88.240 E0.12971
G1 X177.423 Y91.167 E0.11606
G1 X178.267 Y94.840 E0.14349
G1 X178.799 Y98.201 E0.12958
G1 X179.087 Y101.235 E0.11606
G1 X179.227 Y105.001 E0.14348
G1 X179.120 Y108.406 E0.12972
G1 X178.807 Y111.728 E0.12708
G1 X178.266 Y115.162 E0.13235
G1 X177.523 Y118.486 E0.12972
G1 X176.593 Y121.692 E0.12708
G1 X175.393 Y125.026 E0.13493
G1 X174.066 Y128.089 E0.12713
G1 X172.550 Y131.067 E0.12722
G1 X170.748 Y134.114 E0.13480
G1 X168.870 Y136.874 E0.12713
G1 X166.782 Y139.566 E0.12972
G1 X164.529 Y142.121 E0.12972
G1 X162.170 Y144.482 E0.12707
G1 X159.512 Y146.825 E0.13493
G1 X156.873 Y148.871 E0.12714
G1 X154.059 Y150.784 E0.12957
G1 X151.063 Y152.551 E0.13244
G1 X148.088 Y154.066 E0.12714
G1 X144.965 Y155.418 E0.12958
G1 X141.760 Y156.572 E0.12971
G1 X138.833 Y157.423 E0.11606
G1 X135.160 Y158.267 E0.14349
G1 X131.799 Y158.799 E0.12958
G1 X128.765 Y159.087 E0.11606
G1 X124.999 Y159.227 E0.14348
G1 X121.594 Y159.120 E0.12972
G1 X118.272 Y158.807 E0.12708
G1 X114.838 Y158.266 E0.13235
G1 X111.514 Y157.523 E0.12972
G1 X108.308 Y156.593 E0.12708
G1 X104.976 Y155.393 E0.13485
G1 X101.911 Y154.066 E0.12721
G1 X98.933 Y152.550 E0.12722
G1 X95.886 Y150.748 E0.13480
G1 X93.126 Y148.870 E0.12713
G1 X90.434 Y146.782 E0.12972
G1 X87.879 Y144.529 E0.12972
G1 X85.518 Y142.170 E0.12707
G1 X83.176 Y139.514 E0.13485
G1 X81.129 Y136.873 E0.12722
G1 X79.216 Y134.059 E0.12957
G1 X77.449 Y131.063 E0.13244
G1 X75.934 Y128.088 E0.12714
G1 X74.582 Y124.965 E0.12958
G1 X73.429 Y121.763 E0.12958
G1 X72.577 Y118.833 E0.11620
G1 X71.733 Y115.160 E0.14349
G1 X71.201 Y111.799 E0.12958
G1 X70.913 Y108.765 E0.11606
G1 X70.773 Y104.999 E0.14349
G1 X70.885 Y101.527 E0.13230
G1 X71.201 Y98.203 E0.12713
G1 X71.734 Y94.838 E0.12972
G1 X72.477 Y91.514 E0.12972
G1 X73.407 Y88.308 E0.12708
G1 X74.607 Y84.974 E0.13493
G1 X75.934 Y81.911 E0.12713
G1 X77.450 Y78.933 E0.12722
G1 X79.252 Y75.886 E0.13480
G1 X81.130 Y73.126 E0.12713
G1 X83.181 Y70.481 E0.12743
G1 F8640
G1 X85.355 Y68.010 E-0.76000
G1 E-0.04000 F2100.00000
G1 Z0.850 F10800.000
G1 X102.488 Y86.377
G1 Z0.250
G1 E0.80000 F2100.00000
G1 F1200
G1 X103.702 Y85.000 E0.06989
G1 X105.000 Y83.702 E0.06989
G1 X106.377 Y82.488 E0.06989
G1 X107.827 Y81.363 E0.06989
G1 X109.345 Y80.332 E0.06989
G1 X110.925 Y79.397 E0.06989
G1 X112.560 Y78.564 E0.06989
G1 X114.245 Y77.835 E0.06989
G1 X115.972 Y77.213 E0.06989
G1 X117.734 Y76.701 E0.06989
G1 X119.525 Y76.301 E0.06989
G1 X121.338 Y76.014 E0.06989
G1 X123.165 Y75.841 E0.06989
G1 X125.000 Y75.783 E0.06989
G1 X126.835 Y75.841 E0.06989
G1 X128.662 Y76.014 E0.06989
G1 X130.475 Y76.301 E0.06989
G1 X132.266 Y76.701 E0.06989
G1 X134.028 Y77.213 E0.06989
G1 X135.755 Y77.835 E0.06989
G1 X137.440 Y78.564 E0.06989
G1 X139.075 Y79.397 E0.06989
G1 X140.655 Y80.332 E0.06989
G1 X142.173 Y81.363 E0.06989
G1 X143.623 Y82.488 E0.06989
G1 X145.000 Y83.702 E0.06989
G1 X146.298 Y85.000 E0.06989
G1 X147.512 Y86.377 E0.06989
G1 X148.637 Y87.827 E0.06989
G1 X149.668 Y89.345 E0.06989
G1 X150.603 Y90.925 E0.06989
G1 X151.436 Y92.560 E0.06989
G1 X151.898 Y93.627 E0.04427
G1 X152.165 Y94.245 E0.02561
G1 X152.787 Y95.972 E0.06989
G1 X153.299 Y97.734 E0.06989
G1 X153.699 Y99.525 E0.06989
G1 X153.986 Y101.338 E0.06989
G1 X154.159 Y103.165 E0.06989
G1 X154.217 Y105.000 E0.06989
G1 X154.159 Y106.835 E0.06989
G1 X153.986 Y108.662 E0.06989
G1 X153.699 Y110.475 E0.06989
G1 X153.299 Y112.266 E0.06989
G1 X152.787 Y114.028 E0.06989
G1 X152.165 Y115.755 E0.06989
G1 X151.436 Y117.440 E0.06989
G1 X150.603 Y119.075 E0.06989
G1 X149.668 Y120.655 E0.06989
G1 X148.637 Y122.173 E0.06989
G1 X147.512 Y123.623 E0.06989
G1 X146.298 Y125.000 E0.06989
G1 X145.000 Y126.298 E0.06989
G1 X143.623 Y127.512 E0.06989
G1 X142.173 Y128.637 E0.06989
G1 X140.655 Y129.668 E0.06989
G1 X139.075 Y130.603 E0.06989
G1 X137.440 Y131.436 E0.06989
G1 X135.755 Y132.165 E0.06989
G1 X134.028 Y132.787 E0.06989
G1 X132.266 Y133.299 E0.06989
G1 X130.475 Y133.699 E0.06989
G1 X128.662 Y133.986 E0.06989
G1 X126.835 Y134.159 E0.06989
G1 X125.000 Y134.217 E0.06989
G1 X123.165 Y134.159 E0.06989
G1 X121.338 Y133.986 E0.06989
G1 X119.525 Y133.699 E0.06989
G1 X117.734 Y133.299 E0.06989
G1 X115.972 Y132.787 E0.06989
G1 X114.245 Y132.165 E0.06989
G1 X112.560 Y131.436 E0.06989
G1 X110.925 Y130.603 E0.06989
G1 X109.345 Y129.668 E0.06989
G1 X107.827 Y128.637 E0.06989
G1 X106.377 Y127.512 E0.06989
G1 X105.000 Y126.298 E0.06989
G1 X103.702 Y125.000 E0.06989
G1 X102.488 Y123.623 E0.06989
G1 X101.363 Y122.173 E0.06989
G1 X100.332 Y120.655 E0.06989
G1 X99.397 Y119.075 E0.06989
G1 X98.564 Y117.440 E0.06989
G1 X98.102 Y116.373 E0.04427
G1 X97.835 Y115.755 E0.02561
G1 X97.213 Y114.028 E0.06989
G1 X96.701 Y112.266 E0.06989
G1 X96.301 Y110.475 E0.06989
G1 X96.014 Y108.662 E0.06989
G1 X95.841 Y106.835 E0.06989
G1 X95.783 Y105.000 E0.06989
G1 X95.841 Y103.165 E0.06989
G1 X96.014 Y101.338 E0.06989
G1 X96.301 Y99.525 E0.06989
G1 X96.701 Y97.734 E0.06989
G1 X97.213 Y95.972 E0.06989
G1 X97.835 Y94.245 E0.06989
G1 X98.564 Y92.560 E0.06989
G1 X99.397 Y90.925 E0.06989
G1 X100.332 Y89.345 E0.06989
G1 X101.363 Y87.827 E0.06989
G1 X102.451 Y86.424 E0.06761
G1 X102.741 Y86.649 F10800.000
G1 F1200
G1 X103.969 Y85.251 E0.07085
G1 X105.251 Y83.969 E0.06901
G1 X106.610 Y82.771 E0.06901
G1 X108.042 Y81.660 E0.06901
G1 X109.541 Y80.641 E0.06901
G1 X111.101 Y79.718 E0.06901
G1 X112.716 Y78.896 E0.06901
G1 X114.380 Y78.176 E0.06901
G1 X116.085 Y77.562 E0.06901
G1 X117.825 Y77.056 E0.06901
G1 X119.594 Y76.661 E0.06901
G1 X121.384 Y76.377 E0.06901
G1 X123.188 Y76.207 E0.06901
G1 X125.000 Y76.150 E0.06901
G1 X126.812 Y76.207 E0.06901
G1 X128.616 Y76.377 E0.06901
G1 X130.406 Y76.661 E0.06901
G1 X132.175 Y77.056 E0.06901
G1 X133.915 Y77.562 E0.06901
G1 X135.620 Y78.176 E0.06901
G1 X137.284 Y78.896 E0.06901
G1 X138.899 Y79.718 E0.06901
G1 X140.459 Y80.641 E0.06901
G1 X141.958 Y81.660 E0.06901
G1 X143.390 Y82.771 E0.06901
G1 X144.749 Y83.969 E0.06901
G1 X146.031 Y85.251 E0.06901
G1 X147.229 Y86.610 E0.06901
G1 X148.340 Y88.042 E0.06901
G1 X149.359 Y89.541 E0.06901
G1 X150.282 Y91.101 E0.06901
G1 X151.104 Y92.716 E0.06901
G1 X151.562 Y93.773 E0.04384
G1 X151.824 Y94.380 E0.02518
G1 X152.438 Y96.085 E0.06901
G1 X152.944 Y97.825 E0.06901
G1 X153.339 Y99.594 E0.06901
G1 X153.623 Y101.384 E0.06901
G1 X153.793 Y103.188 E0.06901
G1 X153.850 Y105.000 E0.06901
G1 X153.793 Y106.812 E0.06901
G1 X153.623 Y108.616 E0.06901
G1 X153.339 Y110.406 E0.06901
G1 X152.944 Y112.175 E0.06901
G1 X152.438 Y113.915 E0.06901
G1 X151.824 Y115.620 E0.06901
G1 X151.104 Y117.284 E0.06901
G1 X150.282 Y118.899 E0.06901
G1 X149.359 Y120.459 E0.06901
G1 X148.340 Y121.958 E0.06901
G1 X147.229 Y123.390 E0.06901
G1 X146.031 Y124.749 E0.06901
G1 X144.749 Y126.031 E0.06901
G1 X143.390 Y127.229 E0.06901
G1 X141.958 Y128.340 E0.06901
G1 X140.459 Y129.359 E0.06901
G1 X138.899 Y130.282 E0.06901
G1 X137.284 Y131.104 E0.06901
G1 X135.620 Y131.824 E0.06901
G1 X133.915 Y132.438 E0.06901
G1 X132.175 Y132.944 E0.06901
G1 X130.406 Y133.339 E0.06901
G1 X128.616 Y133.623 E0.06901
G1 X126.812 Y133.793 E0.06901
G1 X125.000 Y133.850 E0.06901
G1 X123.188 Y133.793 E0.06901
G1 X121.384 Y133.623 E0.06901
G1 X119.594 Y133.339 E0.06901
G1 X117.825 Y132.944 E0.06901
G1 X116.085 Y132.438 E0.06901
G1 X114.380 Y131.824 E0.06901
G1 X112.716 Y131.104 E0.06901
G1 X111.101 Y130.282 E0.06901
G1 X109.541 Y129.359 E0.06901
G1 X108.042 Y128.340 E0.06901
G1 X106.610 Y127.229 E0.06901
G1 X105.251 Y126.031 E0.06901
G1 X103.969 Y124.749 E0.06901
G1 X102.771 Y123.390 E0.06901
G1 X101.660 Y121.958 E0.06901
G1 X100.641 Y120.459 E0.06901
G1 X99.718 Y118.899 E0.06901
G1 X98.896 Y117.284 E0.06901
G1 X98.438 Y116.227 E0.04384
G1 X98.176 Y115.620 E0.02518
G1 X97.562 Y113.915 E0.06901
G1 X97.056 Y112.175 E0.06901
G1 X96.661 Y110.406 E0.06901
G1 X96.377 Y108.616 E0.06901
G1 X96.207 Y106.812 E0.06901
G1 X96.150 Y105.000 E0.06901
G1 X96.207 Y103.188 E0.06901
G1 X96.377 Y101.384 E0.06901
G1 X96.661 Y99.594 E0.06901
G1 X97.056 Y97.825 E0.06901
G1 X97.562 Y96.085 E0.06901
G1 X98.176 Y94.380 E0.06901
G1 X98.896 Y92.716 E0.06901
G1 X99.718 Y91.101 E0.06901
G1 X100.641 Y89.541 E0.06901
G1 X101.660 Y88.042 E0.06901
G1 X102.704 Y86.696 E0.06488
G1 X102.601 Y86.274 F10800.000
G1 F8640
G1 X103.969 Y85.251 E-0.44348
G1 X104.938 Y84.281 E-0.31652
G1 E-0.04000 F2100.00000
G1 Z0.850 F10800.000
G1 X85.382 Y73.259
G1 Z0.250
G1 E0.80000 F2100.00000
G1 F1200
G1 X85.871 Y72.629 E0.03035
G1 X87.981 Y70.236 E0.12148
G1 X90.236 Y67.981 E0.12148
G1 X92.629 Y65.871 E0.12148
G1 X95.150 Y63.915 E0.12148
G1 X97.789 Y62.122 E0.12148
G1 X100.535 Y60.498 E0.12148
G1 X103.377 Y59.050 E0.12148
G1 X106.305 Y57.783 E0.12148
G1 X109.307 Y56.702 E0.12148
G1 X112.371 Y55.812 E0.12148
G1 X115.484 Y55.116 E0.12148
G1 X118.635 Y54.617 E0.12148
G1 X121.811 Y54.317 E0.12148
G1 X125.000 Y54.217 E0.12148
G1 X128.189 Y54.317 E0.12148
G1 X131.365 Y54.617 E0.12148
G1 X134.516 Y55.116 E0.12148
G1 X137.629 Y55.812 E0.12148
G1 X140.693 Y56.702 E0.12148
G1 X141.776 Y57.092 E0.04383
G1 X143.695 Y57.783 E0.07765
G1 X146.623 Y59.050 E0.12148
G1 X149.465 Y60.498 E0.12148
G1 X152.211 Y62.122 E0.12148
G1 X154.850 Y63.915 E0.12148
G1 X157.371 Y65.871 E0.12148
G1 X159.764 Y67.981 E0.12148
G1 X162.019 Y70.236 E0.12148
G1 X164.129 Y72.629 E0.12148
G1 X166.085 Y75.150 E0.12148
G1 X167.878 Y77.789 E0.12148
G1 X169.502 Y80.535 E0.12148
G1 X170.950 Y83.377 E0.12148
G1 X172.217 Y86.305 E0.12148
G1 X173.298 Y89.307 E0.12148
G1 X174.188 Y92.371 E0.12148
G1 X174.884 Y95.484 E0.12148
G1 X175.383 Y98.635 E0.12148
G1 X175.683 Y101.811 E0.12148
G1 X175.783 Y105.000 E0.12148
G1 X175.683 Y108.189 E0.12148
G1 X175.383 Y111.365 E0.12148
G1 X174.884 Y114.516 E0.12148
G1 X174.188 Y117.629 E0.12148
G1 X173.298 Y120.693 E0.12148
G1 X172.217 Y123.695 E0.12148
G1 X170.950 Y126.623 E0.12148
G1 X169.502 Y129.465 E0.12148
G1 X167.878 Y132.211 E0.12148
G1 X166.085 Y134.850 E0.12148
G1 X164.129 Y137.371 E0.12148
G1 X162.019 Y139.764 E0.12148
G1 X159.764 Y142.019 E0.12148
G1 X157.371 Y144.129 E0.12148
G1 X154.850 Y146.085 E0.12148
G1 X152.211 Y147.878 E0.12148
G1 X149.465 Y149.502 E0.12148
G1 X146.623 Y150.950 E0.12148
G1 X143.695 Y152.217 E0.12148
G1 X140.693 Y153.298 E0.12148
G1 X137.629 Y154.188 E0.12148
G1 X134.516 Y154.884 E0.12148
G1 X131.365 Y155.383 E0.12148
G1 X128.189 Y155.683 E0.12148
G1 X125.000 Y155.783 E0.12148
G1 X121.811 Y155.683 E0.12148
G1 X118.635 Y155.383 E0.12148
G1 X115.484 Y154.884 E0.12148
G1 X112.371 Y154.188 E0.12148
G1 X109.307 Y153.298 E0.12148
G1 X106.305 Y152.217 E0.12148
G1 X103.377 Y150.950 E0.12148
G1 X100.535 Y149.502 E0.12148
G1 X97.789 Y147.878 E0.12148
G1 X95.150 Y146.085 E0.12148
G1 X92.629 Y144.129 E0.12148
G1 X90.236 Y142.019 E0.12148
G1 X87.981 Y139.764 E0.12148
G1 X85.871 Y137.371 E0.12148
G1 X83.915 Y134.850 E0.12148
G1 X82.122 Y132.211 E0.12148
G1 X80.498 Y129.465 E0.12148
G1 X79.050 Y126.623 E0.12148
G1 X77.783 Y123.695 E0.12148
G1 X76.702 Y120.693 E0.12148
G1 X75.812 Y117.629 E0.12148
G1 X75.116 Y114.516 E0.12148
G1 X74.617 Y111.365 E0.12148
G1 X74.317 Y108.189 E0.12148
G1 X74.217 Y105.000 E0.12148
G1 X74.317 Y101.811 E0.12148
G1 X74.617 Y98.635 E0.12148
G1 X75.116 Y95.484 E0.12148
G1 X75.812 Y92.371 E0.12148
G1 X76.702 Y89.307 E0.12148
G1 X77.783 Y86.305 E0.12148
G1 X79.050 Y83.377 E0.12148
G1 X80.498 Y80.535 E0.12148
G1 X82.122 Y77.789 E0.12148
G1 X83.915 Y75.150 E0.12148
G1 X85.345 Y73.307 E0.08884
G1 X85.056 Y73.082 F10800.000
G1 F1200
G1 X85.588 Y72.396 E0.03308
G1 X87.713 Y69.985 E0.12236
G1 X89.985 Y67.713 E0.12235
G1 X92.396 Y65.588 E0.12236
G1 X94.935 Y63.619 E0.12235
G1 X97.592 Y61.813 E0.12236
G1 X100.358 Y60.177 E0.12236
G1 X103.221 Y58.718 E0.12235
G1 X106.170 Y57.442 E0.12235
G1 X109.194 Y56.354 E0.12236
G1 X112.280 Y55.457 E0.12235
G1 X115.415 Y54.756 E0.12236
G1 X118.589 Y54.253 E0.12236
G1 X121.788 Y53.951 E0.12236
G1 X125.000 Y53.850 E0.12236
G1 X128.212 Y53.951 E0.12236
G1 X131.411 Y54.253 E0.12236
G1 X134.585 Y54.756 E0.12236
G1 X137.720 Y55.457 E0.12236
G1 X140.806 Y56.354 E0.12235
G1 X141.900 Y56.747 E0.04426
G1 X143.830 Y57.442 E0.07809
G1 X146.779 Y58.718 E0.12236
G1 X149.642 Y60.177 E0.12235
G1 X152.408 Y61.813 E0.12236
G1 X155.065 Y63.619 E0.12236
G1 X157.604 Y65.588 E0.12235
M73 Q1 S82
G1 X160.015 Y67.713 E0.12236
G1 X162.287 Y69.985 E0.12235
M73 P1 R81
G1 X164.412 Y72.396 E0.12236
G1 X166.381 Y74.935 E0.12235
G1 X168.187 Y77.592 E0.12236
G1 X169.823 Y80.358 E0.12236
G1 X171.282 Y83.221 E0.12235
G1 X172.558 Y86.170 E0.12235
G1 X173.646 Y89.194 E0.12236
G1 X174.543 Y92.280 E0.12235
G1 X175.244 Y95.415 E0.12236
G1 X175.747 Y98.589 E0.12236
G1 X176.049 Y101.788 E0.12236
G1 X176.150 Y105.000 E0.12236
G1 X176.049 Y108.212 E0.12236
G1 X175.747 Y111.411 E0.12236
G1 X175.244 Y114.585 E0.12236
G1 X174.543 Y117.720 E0.12236
G1 X173.646 Y120.806 E0.12235
G1 X172.558 Y123.830 E0.12236
G1 X171.282 Y126.779 E0.12235
G1 X169.823 Y129.642 E0.12235
G1 X168.187 Y132.408 E0.12236
G1 X166.381 Y135.065 E0.12236
G1 X164.412 Y137.604 E0.12235
G1 X162.287 Y140.015 E0.12236
G1 X160.015 Y142.287 E0.12235
G1 X157.604 Y144.412 E0.12236
G1 X155.065 Y146.381 E0.12235
G1 X152.408 Y148.187 E0.12236
G1 X149.642 Y149.823 E0.12236
G1 X146.779 Y151.282 E0.12235
G1 X143.830 Y152.558 E0.12235
G1 X140.806 Y153.646 E0.12236
G1 X137.720 Y154.543 E0.12235
G1 X134.585 Y155.244 E0.12236
G1 X131.411 Y155.747 E0.12236
G1 X128.212 Y156.049 E0.12236
G1 X125.000 Y156.150 E0.12236
G1 X121.788 Y156.049 E0.12236
G1 X118.589 Y155.747 E0.12236
G1 X115.415 Y155.244 E0.12236
G1 X112.280 Y154.543 E0.12236
G1 X109.194 Y153.646 E0.12235
G1 X106.170 Y152.558 E0.12236
G1 X103.221 Y151.282 E0.12235
G1 X100.358 Y149.823 E0.12235
G1 X97.592 Y148.187 E0.12236
