; generated by PrusaSlicer 2.0.0+ on 2019-08-04 at 16:13:37

; 

; external perimeters extrusion width = 0.45mm
; perimeters extrusion width = 0.45mm
; infill extrusion width = 0.45mm
; solid infill extrusion width = 0.45mm
; top infill extrusion width = 0.40mm
; first layer extrusion width = 0.42mm

M73 P0 R73
M73 Q0 S73
M201 X1000 Y1000 Z1000 E5000 ; sets maximum accelerations, mm/sec^2
M203 X200 Y200 Z12 E120 ; sets maximum feedrates, mm/sec
M204 P1250 R1250 T1250 ; sets acceleration (P, T) and retract acceleration (R), mm/sec^2
M205 X8.00 Y8.00 Z0.40 E1.50 ; sets the jerk limits, mm/sec
M205 S0 T0 ; sets the minimum extruding and travel feed rate, mm/sec
M107
M115 U3.7.1 ; tell printer latest fw version
G90 ; use absolute coordinates
M83 ; extruder relative mode
M104 S215 ; set extruder temp
M140 S60 ; set bed temp
M190 S60 ; wait for bed temp
M109 S215 ; wait for extruder temp
G28 W ; home all without mesh bed level
G80 ; mesh bed leveling
G1 Y-3.0 F1000.0 ; go outside print area
G92 E0.0
G1 X60.0 E9.0 F1000.0 ; intro line
M73 Q0 S73
M73 P0 R73
G1 X100.0 E12.5 F1000.0 ; intro line
G92 E0.0
M221 S95
M900 K30 ; Filament gcode
G21 ; set units to millimeters
G90 ; use absolute coordinates
M83 ; use relative distances for extrusion
;BEFORE_LAYER_CHANGE
G92 E0.0
;0.25


G1 E-0.80000 F2100.00000
G1 Z0.600 F10800.000
;AFTER_LAYER_CHANGE
;0.25
G1 X86.529 Y68.846
G1 Z0.250
G1 E0.80000 F2100.00000
M204 S1000
G1 F1200
G1 X91.296 Y64.354 E0.24940
G1 X96.916 Y60.262 E0.26472
G1 X102.656 Y57.105 E0.24943
G1 X108.859 Y54.644 E0.25412
G1 X115.465 Y52.957 E0.25962
G1 X121.962 Y52.139 E0.24933
G1 X128.506 Y52.135 E0.24920
G1 X135.396 Y53.007 E0.26445
G1 X141.737 Y54.643 E0.24935
G1 X147.944 Y57.105 E0.25426
G1 X153.913 Y60.407 E0.25973
G1 X159.203 Y64.264 E0.24932
G1 X164.072 Y68.845 E0.25454
G1 X168.327 Y73.998 E0.25446
G1 X171.836 Y79.532 E0.24951
G1 X174.750 Y85.706 E0.25996
G1 X176.813 Y92.066 E0.25459
G1 X178.044 Y98.509 E0.24976
G1 X178.480 Y105.451 E0.26488
G1 X178.064 Y111.997 E0.24977
G1 X176.813 Y118.570 E0.25476
G1 X174.750 Y124.930 E0.25459
G1 X171.968 Y130.864 E0.24955
G1 X168.246 Y136.741 E0.26488
G1 X164.070 Y141.793 E0.24959
G1 X159.302 Y146.284 E0.24940
G1 X153.685 Y150.374 E0.26458
G1 X147.945 Y153.531 E0.24943
G1 X141.738 Y155.993 E0.25425
G1 X135.131 Y157.679 E0.25965
G1 X128.639 Y158.497 E0.24916
G1 X121.963 Y158.497 E0.25420
G1 X115.336 Y157.658 E0.25435
G1 X108.997 Y156.032 E0.24921
G1 X102.653 Y153.529 E0.25966
G1 X96.804 Y150.307 E0.25430
G1 X91.507 Y146.457 E0.24935
G1 X86.529 Y141.791 E0.25980
G1 X82.274 Y136.637 E0.25446
G1 X78.764 Y131.104 E0.24951
G1 X75.851 Y124.930 E0.25996
G1 X73.788 Y118.570 E0.25459
G1 X72.557 Y112.127 E0.24976
G1 X72.121 Y105.185 E0.26488
G1 X72.537 Y98.638 E0.24977
G1 X73.759 Y92.194 E0.24976
G1 X75.906 Y85.578 E0.26484
G1 X78.696 Y79.648 E0.24955
G1 X82.274 Y73.999 E0.25465
G1 X86.491 Y68.892 E0.25217
G1 F8640
G1 X88.884 Y66.632 E-0.76000
G1 E-0.04000 F2100.00000
G1 Z0.850 F10800.000
G1 X103.836 Y85.124
G1 Z0.250
G1 E0.80000 F2100.00000
G1 F1200
G1 X106.531 Y82.588 E0.14093
G1 X109.523 Y80.410 E0.14090
G1 X112.763 Y78.625 E0.14087
G1 X116.201 Y77.261 E0.14084
G1 X119.783 Y76.340 E0.14082
G1 X123.452 Y75.875 E0.14081
G1 X127.149 Y75.875 E0.14081
G1 X130.818 Y76.340 E0.14081
G1 X134.400 Y77.261 E0.14082
G1 X137.838 Y78.625 E0.14084
G1 X141.078 Y80.410 E0.14087
G1 X144.070 Y82.588 E0.14089
G1 X146.765 Y85.124 E0.14093
G1 X149.122 Y87.978 E0.14096
G1 X151.103 Y91.106 E0.14099
G1 X152.678 Y94.459 E0.14101
G1 X153.820 Y97.982 E0.14103
G1 X154.513 Y101.621 E0.14105
G1 X154.745 Y105.318 E0.14106
G1 X154.513 Y109.015 E0.14106
G1 X153.820 Y112.654 E0.14105
G1 X152.678 Y116.177 E0.14103
G1 X151.103 Y119.529 E0.14101
G1 X149.122 Y122.657 E0.14099
G1 X146.765 Y125.512 E0.14096
G1 X144.070 Y128.048 E0.14093
G1 X141.078 Y130.226 E0.14090
G1 X137.838 Y132.011 E0.14087
G1 X134.400 Y133.375 E0.14084
G1 X130.818 Y134.296 E0.14082
G1 X127.149 Y134.761 E0.14081
G1 X123.452 Y134.761 E0.14081
G1 X119.783 Y134.296 E0.14081
G1 X116.201 Y133.375 E0.14082
G1 X112.763 Y132.011 E0.14084
G1 X109.523 Y130.226 E0.14087
G1 X106.531 Y128.048 E0.14090
G1 X103.836 Y125.512 E0.14093
G1 X101.479 Y122.657 E0.14096
G1 X99.498 Y119.529 E0.14099
G1 X97.923 Y116.177 E0.14101
G1 X96.781 Y112.654 E0.14104
G1 X96.088 Y109.015 E0.14105
G1 X95.856 Y105.318 E0.14106
G1 X96.088 Y101.621 E0.14106
G1 X96.781 Y97.982 E0.14105
G1 X97.923 Y94.459 E0.14104
G1 X99.498 Y91.106 E0.14101
G1 X101.479 Y87.978 E0.14099
G1 X103.797 Y85.170 E0.13867
G1 X104.080 Y85.403 F10800.000
G1 F1200
G1 X106.765 Y82.870 E0.14057
G1 X109.720 Y80.720 E0.13914
G1 X112.919 Y78.957 E0.13911
G1 X116.315 Y77.610 E0.13908
G1 X119.852 Y76.700 E0.13907
G1 X123.475 Y76.242 E0.13905
G1 X127.126 Y76.242 E0.13905
G1 X130.749 Y76.700 E0.13905
G1 X134.286 Y77.610 E0.13907
G1 X137.681 Y78.957 E0.13908
G1 X140.881 Y80.720 E0.13911
G1 X143.836 Y82.870 E0.13914
G1 X146.497 Y85.375 E0.13917
G1 X148.825 Y88.194 E0.13920
G1 X150.781 Y91.283 E0.13923
G1 X152.336 Y94.593 E0.13926
G1 X153.464 Y98.073 E0.13928
G1 X154.149 Y101.667 E0.13930
G1 X154.378 Y105.318 E0.13931
G1 X154.149 Y108.969 E0.13931
G1 X153.464 Y112.563 E0.13930
G1 X152.336 Y116.042 E0.13928
G1 X150.781 Y119.353 E0.13926
G1 X148.825 Y122.442 E0.13923
G1 X146.497 Y125.261 E0.13920
G1 X143.836 Y127.766 E0.13917
G1 X140.881 Y129.916 E0.13914
G1 X137.681 Y131.679 E0.13911
G1 X134.286 Y133.026 E0.13908
G1 X130.749 Y133.936 E0.13907
G1 X127.126 Y134.394 E0.13905
G1 X123.475 Y134.394 E0.13905
G1 X119.852 Y133.936 E0.13905
G1 X116.315 Y133.026 E0.13907
G1 X112.919 Y131.679 E0.13908
G1 X109.720 Y129.916 E0.13911
G1 X106.765 Y127.766 E0.13914
G1 X104.104 Y125.261 E0.13917
G1 X101.776 Y122.442 E0.13920
G1 X99.819 Y119.353 E0.13923
G1 X98.265 Y116.042 E0.13926
G1 X97.136 Y112.563 E0.13928
G1 X96.452 Y108.969 E0.13930
G1 X96.223 Y105.318 E0.13931
G1 X96.452 Y101.667 E0.13931
G1 X97.136 Y98.073 E0.13930
G1 X98.265 Y94.593 E0.13928
G1 X99.819 Y91.283 E0.13926
G1 X101.776 Y88.194 E0.13923
G1 X104.042 Y85.450 E0.13551
G1 X104.324 Y85.683 F10800.000
G1 F1200
G1 X107.000 Y83.153 E0.14021
G1 X109.917 Y81.030 E0.13738
G1 X113.076 Y79.289 E0.13735
G1 X116.428 Y77.959 E0.13733
G1 X119.921 Y77.061 E0.13731
G1 X123.498 Y76.608 E0.13729
G1 X127.103 Y76.608 E0.13729
G1 X130.680 Y77.061 E0.13729
G1 X134.173 Y77.959 E0.13731
G1 X137.525 Y79.289 E0.13733
G1 X140.684 Y81.030 E0.13735
G1 X143.601 Y83.153 E0.13738
G1 X146.230 Y85.626 E0.13741
G1 X148.528 Y88.409 E0.13745
G1 X150.460 Y91.460 E0.13748
G1 X151.995 Y94.728 E0.13751
G1 X153.109 Y98.164 E0.13753
G1 X153.784 Y101.713 E0.13755
G1 X154.011 Y105.318 E0.13755
G1 X153.784 Y108.923 E0.13755
G1 X153.109 Y112.472 E0.13755
G1 X151.995 Y115.908 E0.13753
G1 X150.460 Y119.176 E0.13751
G1 X148.528 Y122.226 E0.13748
G1 X146.230 Y125.010 E0.13745
G1 X143.601 Y127.483 E0.13741
G1 X140.684 Y129.606 E0.13738
G1 X137.525 Y131.347 E0.13735
G1 X134.173 Y132.677 E0.13733
G1 X130.680 Y133.575 E0.13731
G1 X127.103 Y134.028 E0.13729
G1 X123.498 Y134.028 E0.13729
G1 X119.921 Y133.575 E0.13729
G1 X116.428 Y132.677 E0.13731
G1 X113.076 Y131.347 E0.13733
G1 X109.917 Y129.606 E0.13735
G1 X107.000 Y127.483 E0.13738
G1 X104.371 Y125.010 E0.13741
G1 X102.073 Y122.226 E0.13745
G1 X100.141 Y119.176 E0.13748
G1 X98.606 Y115.908 E0.13751
G1 X97.492 Y112.472 E0.13753
G1 X96.816 Y108.923 E0.13755
G1 X96.590 Y105.318 E0.13755
G1 X96.816 Y101.713 E0.13755
G1 X97.492 Y98.164 E0.13755
G1 X98.606 Y94.728 E0.13753
G1 X100.141 Y91.460 E0.13751
G1 X102.073 Y88.409 E0.13748
G1 X104.286 Y85.729 E0.13235
G1 X104.208 Y85.300 F10800.000
G1 F8640
G1 X106.673 Y83.463 E-0.76000
G1 E-0.04000 F2100.00000
G1 Z0.850 F10800.000
G1 X88.812 Y70.983
G1 Z0.250
G1 E0.80000 F2100.00000
G1 F1200
G1 X93.395 Y66.671 E0.23958
G1 X98.480 Y62.969 E0.23952
G1 X103.989 Y59.935 E0.23946
G1 X109.833 Y57.616 E0.23942
G1 X115.921 Y56.050 E0.23938
G1 X122.158 Y55.261 E0.23936
G1 X128.443 Y55.261 E0.23935
G1 X134.680 Y56.050 E0.23936
G1 X140.768 Y57.616 E0.23938
G1 X146.612 Y59.935 E0.23942
G1 X152.121 Y62.969 E0.23946
G1 X157.206 Y66.671 E0.23952
G1 X161.789 Y70.983 E0.23958
G1 X165.796 Y75.836 E0.23964
G1 X169.164 Y81.154 E0.23970
G1 X171.841 Y86.854 E0.23976
G1 X173.783 Y92.844 E0.23980
G1 X174.961 Y99.031 E0.23983
G1 X175.356 Y105.318 E0.23984
G1 X174.961 Y111.604 E0.23984
G1 X173.783 Y117.792 E0.23983
G1 X171.841 Y123.782 E0.23980
G1 X169.164 Y129.482 E0.23976
G1 X165.796 Y134.800 E0.23970
G1 X161.789 Y139.653 E0.23964
G1 X157.206 Y143.964 E0.23958
G1 X152.121 Y147.667 E0.23952
G1 X146.612 Y150.701 E0.23946
G1 X140.768 Y153.019 E0.23942
G1 X134.680 Y154.586 E0.23938
G1 X128.443 Y155.375 E0.23936
G1 X122.158 Y155.375 E0.23935
G1 X115.921 Y154.586 E0.23936
G1 X109.833 Y153.019 E0.23938
G1 X103.989 Y150.701 E0.23942
G1 X98.480 Y147.667 E0.23946
M73 Q1 S72
G1 X93.395 Y143.964 E0.23952
M73 P1 R72
G1 X88.812 Y139.653 E0.23958
G1 X84.805 Y134.800 E0.23964
G1 X81.437 Y129.482 E0.23970
G1 X78.760 Y123.782 E0.23976
G1 X76.818 Y117.792 E0.23980
G1 X75.640 Y111.604 E0.23983
G1 X75.245 Y105.318 E0.23984
G1 X75.640 Y99.031 E0.23984
G1 X76.818 Y92.844 E0.23983
G1 X78.760 Y86.854 E0.23980
G1 X81.437 Y81.154 E0.23976
G1 X84.805 Y75.836 E0.23970
G1 X88.774 Y71.029 E0.23736
G1 X88.492 Y70.796 F10800.000
G1 F1200
G1 X93.160 Y66.389 E0.24447
G1 X98.283 Y62.660 E0.24128
G1 X103.832 Y59.603 E0.24122
G1 X109.719 Y57.267 E0.24117
G1 X115.852 Y55.690 E0.24113
G1 X122.134 Y54.894 E0.24112
G1 X128.466 Y54.894 E0.24111
G1 X134.748 Y55.690 E0.24112
G1 X140.882 Y57.267 E0.24113
G1 X146.769 Y59.603 E0.24117
G1 X152.318 Y62.660 E0.24122
G1 X157.441 Y66.389 E0.24128
G1 X162.057 Y70.732 E0.24134
G1 X166.093 Y75.621 E0.24140
G1 X169.486 Y80.978 E0.24146
G1 X172.182 Y86.719 E0.24151
G1 X174.139 Y92.753 E0.24155
G1 X175.326 Y98.986 E0.24158
G1 X175.723 Y105.318 E0.24160
G1 X175.326 Y111.650 E0.24160
G1 X174.139 Y117.883 E0.24158
G1 X172.182 Y123.917 E0.24155
G1 X169.486 Y129.658 E0.24151
G1 X166.093 Y135.015 E0.24146
G1 X162.057 Y139.904 E0.24140
G1 X157.441 Y144.247 E0.24134
G1 X152.318 Y147.976 E0.24128
G1 X146.769 Y151.033 E0.24122
G1 X140.882 Y153.368 E0.24117
G1 X134.748 Y154.946 E0.24113
G1 X128.466 Y155.742 E0.24112
G1 X122.134 Y155.742 E0.24111
G1 X115.852 Y154.946 E0.24112
G1 X109.719 Y153.368 E0.24113
G1 X103.832 Y151.033 E0.24117
G1 X98.283 Y147.976 E0.24122
G1 X93.160 Y144.247 E0.24128
G1 X88.544 Y139.904 E0.24134
G1 X84.508 Y135.015 E0.24140
G1 X81.115 Y129.658 E0.24146
G1 X78.419 Y123.917 E0.24151
G1 X76.462 Y117.883 E0.24155
G1 X75.275 Y111.650 E0.24158
G1 X74.878 Y105.318 E0.24160
G1 X75.275 Y98.986 E0.24160
G1 X76.462 Y92.753 E0.24158
G1 X78.419 Y86.719 E0.24155
G1 X81.115 Y80.978 E0.24151
G1 X84.508 Y75.621 E0.24146
G1 X88.453 Y70.842 E0.23595
G1 X88.171 Y70.609 F10800.000
G1 F1200
G1 X88.277 Y70.481 E0.00632
G1 X92.926 Y66.106 E0.24309
G1 X98.086 Y62.350 E0.24303
G1 X103.675 Y59.271 E0.24298
G1 X109.606 Y56.918 E0.24293
G1 X115.784 Y55.329 E0.24289
G1 X122.111 Y54.528 E0.24287
G1 X128.490 Y54.528 E0.24286
G1 X134.817 Y55.329 E0.24287
G1 X140.995 Y56.918 E0.24289
G1 X146.925 Y59.271 E0.24293
G1 X152.515 Y62.350 E0.24298
G1 X157.675 Y66.106 E0.24303
G1 X162.324 Y70.481 E0.24309
G1 X166.390 Y75.405 E0.24315
G1 X169.808 Y80.801 E0.24321
G1 X172.523 Y86.584 E0.24326
G1 X174.494 Y92.662 E0.24330
G1 X175.690 Y98.940 E0.24333
G1 X176.090 Y105.318 E0.24335
G1 X175.690 Y111.696 E0.24335
G1 X174.494 Y117.974 E0.24333
G1 X172.523 Y124.052 E0.24330
G1 X169.808 Y129.835 E0.24326
G1 X166.390 Y135.231 E0.24321
G1 X162.324 Y140.155 E0.24315
G1 X157.675 Y144.530 E0.24309
G1 X152.515 Y148.286 E0.24303
G1 X146.925 Y151.365 E0.24298
G1 X140.995 Y153.718 E0.24293
G1 X134.817 Y155.307 E0.24289
G1 X128.490 Y156.108 E0.24287
G1 X122.111 Y156.108 E0.24286
G1 X115.784 Y155.307 E0.24287
G1 X109.606 Y153.718 E0.24289
G1 X103.675 Y151.365 E0.24293
G1 X98.086 Y148.286 E0.24298
G1 X92.926 Y144.530 E0.24303
G1 X88.277 Y140.155 E0.24309
G1 X84.211 Y135.231 E0.24315
G1 X80.793 Y129.835 E0.24321
G1 X78.078 Y124.052 E0.24326
G1 X76.107 Y117.974 E0.24330
G1 X74.911 Y111.696 E0.24333
G1 X74.511 Y105.318 E0.24335
G1 X74.911 Y98.940 E0.24335
G1 X76.107 Y92.662 E0.24333
G1 X78.078 Y86.584 E0.24330
G1 X80.793 Y80.801 E0.24326
G1 X84.211 Y75.405 E0.24321
G1 X88.133 Y70.655 E0.23454
G1 X88.335 Y70.633 F10800.000
G1 F8640
G1 X88.277 Y70.481 E-0.05221
G1 X90.509 Y68.380 E-0.70779
G1 E-0.04000 F2100.00000
G1 Z0.850 F10800.000
G1 X88.975 Y71.218
G1 Z0.250
G1 E0.80000 F2100.00000
G1 F1200
G1 X85.028 Y75.998 E0.23671
G1 X81.678 Y81.287 E0.23906
G1 X79.016 Y86.955 E0.23911
G1 X77.084 Y92.913 E0.23916
G1 X75.913 Y99.066 E0.23919
G1 X75.520 Y105.318 E0.23920
G1 X75.913 Y111.570 E0.23920
G1 X77.084 Y117.723 E0.23919
G1 X79.016 Y123.681 E0.23916
G1 X81.678 Y129.349 E0.23911
G1 X85.028 Y134.638 E0.23906
G1 X89.013 Y139.465 E0.23900
G1 X93.570 Y143.753 E0.23894
G1 X98.628 Y147.434 E0.23887
G1 X104.106 Y150.452 E0.23882
G1 X109.918 Y152.758 E0.23877
G1 X115.973 Y154.315 E0.23873
G1 X122.175 Y155.101 E0.23871
G1 X128.426 Y155.101 E0.23870
G1 X134.628 Y154.315 E0.23871
G1 X140.683 Y152.758 E0.23873
G1 X146.495 Y150.452 E0.23877
G1 X151.973 Y147.434 E0.23882
G1 X157.031 Y143.753 E0.23887
G1 X161.588 Y139.465 E0.23894
G1 X165.573 Y134.638 E0.23900
G1 X168.923 Y129.349 E0.23906
G1 X171.585 Y123.681 E0.23911
G1 X173.517 Y117.723 E0.23916
G1 X174.688 Y111.570 E0.23919
G1 X175.081 Y105.318 E0.23920
G1 X174.688 Y99.066 E0.23920
G1 X173.517 Y92.913 E0.23919
G1 X171.585 Y86.955 E0.23916
G1 X168.923 Y81.287 E0.23911
G1 X165.573 Y75.998 E0.23906
G1 X161.588 Y71.171 E0.23900
G1 X157.031 Y66.883 E0.23894
G1 X151.973 Y63.202 E0.23887
G1 X146.495 Y60.184 E0.23882
G1 X140.683 Y57.878 E0.23877
G1 X134.628 Y56.321 E0.23873
G1 X128.426 Y55.535 E0.23871
G1 X122.175 Y55.535 E0.23870
G1 X115.973 Y56.321 E0.23871
G1 X109.918 Y57.878 E0.23873
G1 X104.106 Y60.184 E0.23877
G1 X98.628 Y63.202 E0.23882
G1 X93.570 Y66.883 E0.23887
G1 X89.013 Y71.171 E0.23894
G1 X89.282 Y71.423 F10800.000
G1 F1200
G1 X93.805 Y67.167 E0.23717
G1 X98.825 Y63.512 E0.23711
G1 X104.263 Y60.517 E0.23705
G1 X110.032 Y58.228 E0.23700
G1 X116.042 Y56.682 E0.23696
G1 X122.198 Y55.903 E0.23694
G1 X128.403 Y55.903 E0.23693
G1 X134.559 Y56.682 E0.23694
G1 X140.569 Y58.228 E0.23696
G1 X146.338 Y60.517 E0.23700
G1 X151.776 Y63.512 E0.23705
G1 X156.796 Y67.167 E0.23711
G1 X161.319 Y71.423 E0.23717
G1 X165.275 Y76.214 E0.23723
G1 X168.600 Y81.464 E0.23730
G1 X171.242 Y87.090 E0.23735
G1 X173.160 Y93.004 E0.23739
G1 X174.323 Y99.112 E0.23743
G1 X174.713 Y105.318 E0.23744
G1 X174.323 Y111.524 E0.23744
G1 X173.160 Y117.632 E0.23743
G1 X171.242 Y123.546 E0.23739
G1 X168.600 Y129.172 E0.23735
G1 X165.275 Y134.422 E0.23730
G1 X161.319 Y139.213 E0.23723
M73 Q2 S71
G1 X156.796 Y143.469 E0.23717
M73 P2 R71
G1 X151.776 Y147.124 E0.23711
G1 X146.338 Y150.119 E0.23705
G1 X140.569 Y152.408 E0.23700
G1 X134.559 Y153.954 E0.23696
G1 X128.403 Y154.733 E0.23694
G1 X122.198 Y154.733 E0.23693
G1 X116.042 Y153.954 E0.23694
G1 X110.032 Y152.408 E0.23696
G1 X104.263 Y150.119 E0.23700
G1 X98.825 Y147.124 E0.23705
G1 X93.805 Y143.469 E0.23711
G1 X89.282 Y139.213 E0.23717
G1 X85.326 Y134.422 E0.23723
G1 X82.001 Y129.172 E0.23730
G1 X79.359 Y123.546 E0.23735
G1 X77.441 Y117.632 E0.23739
G1 X76.278 Y111.524 E0.23743
G1 X75.888 Y105.318 E0.23744
G1 X76.278 Y99.112 E0.23744
G1 X77.441 Y93.004 E0.23743
G1 X79.359 Y87.090 E0.23739
G1 X82.001 Y81.464 E0.23735
G1 X85.326 Y76.214 E0.23730
G1 X89.243 Y71.469 E0.23494
G1 X89.512 Y71.721 F10800.000
G1 F1200
G1 X85.624 Y76.430 E0.23318
G1 X82.324 Y81.641 E0.23553
G1 X79.701 Y87.225 E0.23559
G1 X77.798 Y93.095 E0.23563
G1 X76.643 Y99.158 E0.23566
G1 X76.257 Y105.318 E0.23568
G1 X76.643 Y111.478 E0.23568
G1 X77.798 Y117.541 E0.23566
G1 X79.701 Y123.411 E0.23563
G1 X82.324 Y128.995 E0.23559
G1 X85.624 Y134.206 E0.23553
G1 X89.550 Y138.961 E0.23547
G1 X94.040 Y143.186 E0.23541
G1 X99.023 Y146.813 E0.23534
G1 X104.420 Y149.786 E0.23528
G1 X110.146 Y152.058 E0.23523
G1 X116.111 Y153.592 E0.23519
G1 X122.221 Y154.366 E0.23517
G1 X128.380 Y154.366 E0.23516
